!!!COM: Beethoven, Ludwig van
!!!CDT: 1770///-1827///
!!!OTL: Piano Sonata no. 23 in F minor
!!!OTP: appassionata
!!!ODT: 1804///-1805///
!!!ODE: Comte Franz de Brunswick
!!!OPS: 57
!!!OMV: 3
!!!OMD: Allegro ma non troppo
**kern	**dynam	**kern	**dynam
*staff2	*staff2	*staff1	*staff1
*Ipiano	*Ipiano	*Ipiano	*Ipiano
*>[A,B,B1,B,B2,D,D1,D,D2,E,E1,E,E2,F]	*>[A,B,B1,B,B2,D,D1,D,D2,E,E1,E,E2,F]	*>[A,B,B1,B,B2,D,D1,D,D2,E,E1,E,E2,F]	*>[A,B,B1,B,B2,D,D1,D,D2,E,E1,E,E2,F]
*>norep[A,B,B2,D,D2,E,E2,F]	*>norep[A,B,B2,D,D2,E,E2,F]	*>norep[A,B,B2,D,D2,E,E2,F]	*>norep[A,B,B2,D,D2,E,E2,F]
*>A	*>A	*>A	*>A
*clefF4	*clefF4	*clefG2	*clefG2
*k[b-e-a-d-]	*k[b-e-a-d-]	*k[b-e-a-d-]	*k[b-e-a-d-]
*f:	*f:	*f:	*f:
*M2/4	*M2/4	*M2/4	*M2/4
*MM144	*MM144	*MM144	*MM144
=1-	=1-	=1-	=1-
*ped	*	*	*
4.BB-\ 4.G\	.	4.en/ 4.dd-/	ff
8BB-\ 8G\	.	8e/ 8dd-/	.
=2	=2	=2	=2
4.BB-\ 4.G\	.	4.en/ 4.dd-/	.
8BB-\ 8G\	.	8e/ 8dd-/	.
=3	=3	=3	=3
8.BB-\ 8.G\L	.	8.en/ 8.dd-/L	.
16BB-\ 16G\Jk	.	16e/ 16dd-/Jk	.
8.BB-\ 8.G\L	.	8.e/ 8.dd-/L	.
16BB-\ 16G\Jk	.	16e/ 16dd-/Jk	.
=4	=4	=4	=4
8.BB-\ 8.G\L	.	8.en/ 8.dd-/L	.
16BB-\ 16G\Jk	.	16e/ 16dd-/Jk	.
8.BB-\ 8.G\L	.	8.e/ 8.dd-/L	.
16BB-\ 16G\Jk	.	16e/ 16dd-/Jk	.
=5	=5	=5	=5
4BB-\ 4G\	.	4en/ 4dd-/	.
*Xped	*	*	*
4r	.	8r	.
.	.	16ddd-\LL	p
.	.	16ccc\JJ	.
=6	=6	=6	=6
2r	.	16bb-\LL	.
.	.	16ccc\	.
.	.	16bb-\	.
.	.	16aa-\JJ	.
.	.	16gg\LL	.
.	.	16aa-\	.
.	.	16gg\	.
.	.	16ff\JJ	.
=7	=7	=7	=7
2r	.	4een\	.
.	.	8r	.
.	.	16dd-\LL	.
.	.	16cc\JJ	.
=8	=8	=8	=8
2r	.	16b-/LL	.
.	.	16cc/	.
.	.	16b-/	.
.	.	16a-/JJ	.
.	.	16g/LL	.
.	.	16a-/	.
.	.	16g/	.
.	.	16f/JJ	.
=9	=9	=9	=9
2r	.	4en/	.
.	.	8r	.
.	.	16dd-\LL	.
.	.	16cc\JJ	.
=10	=10	=10	=10
!	!	!LO:TX:t=cresc.	!
2r	.	16b-/LL	.
.	.	16cc/	.
.	.	16b-/	.
.	.	16a-/JJ	.
.	.	16g/LL	.
.	.	16a-/	.
.	.	16g/	.
.	.	16f/JJ	.
=11	=11	=11	=11
2r	.	16en/LL	.
.	.	16f/	.
.	.	16e/	.
.	.	16d-/JJ	.
.	.	16c/LL	.
.	.	16d-/	.
.	.	16c/	.
.	.	16Bn/JJ	.
*	*	*clefF4	*clefF4
=12	=12	=12	=12
2r	.	16B-\LL	.
.	.	16c\	.
.	.	16B-\	.
.	.	16A-\JJ	.
.	.	16G\LL	.
.	.	16A-\	.
.	.	16G\	.
.	.	16F\JJ	.
=13	=13	=13	=13
4r	.	16En\LL	.
.	.	16F\	.
.	.	16E\	.
.	.	16D-\JJ	.
16CC/LL	.	16C/LL	f
16DD-/	.	16D-/	.
16CC/	.	16C/	.
16BBBn/JJ	.	16BBn/JJ	.
=14	=14	=14	=14
16CC/LL	.	16C/LL	.
16DD-/	.	16D-/	.
16CC/	.	16C/	.
16BBBn/JJ	.	16BBn/JJ	.
16CC/LL	.	16C/LL	.
16DD-/	.	16D-/	.
16CC/	.	16C/	.
16BBB/JJ	.	16BB/JJ	.
=15	=15	=15	=15
16CC/LL	.	16C/LL	.
16DD-/	.	16D-/	.
16CC/	.	16C/	.
16BBBn/JJ	.	16BBn/JJ	.
16CC/LL	.	16C/LL	.
16DD-/	.	16D-/	.
16CC/	.	16C/	.
16BBB/JJ	.	16BB/JJ	.
=16	=16	=16	=16
16BBB-/LL	.	16BB-/LL	.
16CC/	.	16C/	.
16BBB-/	.	16BB-/	.
16AAAn/JJ	.	16AAn/JJ	.
16BBB-/LL	.	16BB-/LL	.
16CC/	.	16C/	.
16BBB-/	.	16BB-/	.
16AAA/JJ	.	16AA/JJ	.
=17	=17	=17	=17
16BBB-/LL	.	16BB-/LL	.
16CC/	.	16C/	.
16BBB-/	.	16BB-/	.
16AAAn/JJ	.	16AAn/JJ	.
16BBB-/LL	.	16BB-/LL	.
16CC/	.	16C/	.
16BBB-/	.	16BB-/	.
16AAA/JJ	.	16AA/JJ	.
=18	=18	=18	=18
!	!	!LO:TX:t=dim.	!
16BBB-/LL	.	16BB-/LL	.
16CC/	.	16C/	.
16BBB-/	.	16BB-/	.
16AAAn/JJ	.	16AAn/JJ	.
16BBB-/LL	.	16BB-/LL	.
16CC/	.	16C/	.
16BBB-/	.	16BB-/	.
16AAA/JJ	.	16AA/JJ	.
=19	=19	=19	=19
16BBB-/LL	.	16BB-/LL	.
16GGG/	.	16GG/	.
16AAA-/	.	16AA-/	.
16BBB-/JJ	.	16BB-/JJ	.
16CC/LL	.	16C/LL	.
16BBB-/	.	16BB-/	.
16AAA-/	.	16AA-/	.
16GGG/JJ	.	16GG/JJ	.
=20	=20	=20	=20
4FFF/	.	16r	pp
.	.	16C\LL	.
.	.	16F\	.
.	.	16A-\JJ	.
4r	.	16c\LL	.
.	.	16d-\	.
.	.	16c\	.
.	.	16B-\JJ	.
=21	=21	=21	=21
4r	.	16A-\LL	.
.	.	16B-\	.
.	.	16A-\	.
.	.	16G\JJ	.
8.r	.	16F\LL	.
.	.	16G\	.
.	.	16A-\	.
16FF/	.	16F\JJ	.
=22	=22	=22	=22
4FFF/	.	16r	.
.	.	16C\LL	.
.	.	16F\	.
.	.	16A-\JJ	.
4r	.	16c\LL	.
.	.	16d-\	.
.	.	16c\	.
.	.	16B-\JJ	.
=23	=23	=23	=23
4r	.	16A-\LL	.
.	.	16B-\	.
.	.	16A-\	.
.	.	16G\JJ	.
8.r	.	16F\LL	.
.	.	16G\	.
.	.	16A-\	.
16FF/	.	16F\JJ	.
=24	=24	=24	=24
4BBB-/	.	16r	.
.	.	16D-\LL	.
.	.	16G-\	.
.	.	16B-\JJ	.
4r	.	16d-\LL	.
.	.	16e-\	.
.	.	16d-\	.
.	.	16c\JJ	.
=25	=25	=25	=25
4r	.	16B-\LL	.
.	.	16c\	.
.	.	16B-\	.
.	.	16A-\JJ	.
8.r	.	16G-\LL	.
.	.	16A-\	.
.	.	16G-\	.
16DD-/	.	16F\JJ	.
=26	=26	=26	=26
8CC/	.	16En\LL	.
.	.	16F\	.
8r	.	16Gn\	.
.	.	16E\JJ	.
8DD-/	.	16F\LL	.
.	.	16G\	.
8r	.	16A-\	.
.	.	16F\JJ	.
=27	=27	=27	=27
8BBB-/	.	16G\LL	.
.	.	16A-\	.
8r	.	16B-\	.
.	.	16G\JJ	.
8CC/	.	16En\LL	.
.	.	16F\	.
8r	.	16G\	.
.	.	16E\JJ	.
=28	=28	=28	=28
4FFF/ 4FF/	.	16F\LL	.
.	.	16C\	.
.	.	16F\	.
.	.	16A-\JJ	.
8.r	.	16c\LL	.
.	.	16d-\	.
.	.	16c\	.
*clefG2	*clefG2	*	*
16a-\ 16cc\	.	16B-\JJ	.
=29	=29	=29	=29
(4a-/ 4cc/	.	16A-\LL	.
.	.	16B-\	.
.	.	16A-\	.
.	.	16G\JJ	.
8f/) 8a-/	.	16F\LL	.
.	.	16G\	.
8r	.	16A-\	.
.	.	16F\JJ	.
*clefF4	*clefF4	*	*
=30	=30	=30	=30
4FFF/ 4FF/	.	16r	.
.	.	16C\LL	.
.	.	16F\	.
.	.	16A-\JJ	.
8.r	.	16c\LL	.
.	.	16d-\	.
.	.	16c\	.
*clefG2	*clefG2	*	*
16a-/ 16cc/	.	16B-\JJ	.
=31	=31	=31	=31
(4a-/ 4cc/	.	16A-\LL	.
.	.	16B-\	.
.	.	16A-\	.
.	.	16G\JJ	.
8f/) 8a-/	.	16F\LL	.
.	.	16G\	.
8r	.	16A-\	.
.	.	16F\JJ	.
*clefF4	*clefF4	*	*
=32	=32	=32	=32
4BBB-/ 4BB-/	.	16r	.
.	.	16D-\LL	.
.	.	16G-\	.
.	.	16B-\JJ	.
8.r	.	16d-\LL	.
.	.	16e-\	.
.	.	16d-\	.
*clefG2	*clefG2	*	*
16b-\ 16dd-\	.	16c\JJ	.
=33	=33	=33	=33
2b-\ 2dd-\	.	16B-\LL	.
.	.	16c\	.
.	.	16B-\	.
.	.	16A-\JJ	.
.	.	16G-\LL	.
.	.	16A-\	.
.	.	16G-\	.
.	.	16F\JJ	.
=34	=34	=34	=34
8b-\ 8cc\	.	16En\LL	.
.	.	16F\	.
*clefF4	*clefF4	*	*
8CC/ 8C/	.	16Gn\	.
.	.	16E\JJ	.
8r	.	16F\LL	.
.	.	16G\	.
8DD-/ 8D-/	.	16A-\	.
.	.	16F\JJ	.
=35	=35	=35	=35
8r	.	16G\LL	.
.	.	16A-\	.
8BBB-/ 8BB-/	.	16B-\	.
.	.	16G\JJ	.
8r	.	16En\LL	.
.	.	16F\	.
8CC/ 8C/	.	16G\	.
.	.	16E\JJ	.
=36	=36	=36	=36
4FFF/ 4FF/	.	16F\	<
*	*	*clefG2	*clefG2
.	.	16c/LL	(
.	.	16f/	(
.	.	16a-/JJ	(
8.r	.	16cc/LL	(
.	.	16c/	(
.	.	16f/	(
16F\ 16A-\	.	16a-/JJ	(
=37	=37	=37	=37
4F\ 4A-\	.	16r	(
.	.	16c/LL	(
.	.	16f/	(
.	.	16a-/JJ	(
8.r	.	16cc/LL	(
.	.	16c/	(
.	.	16f/	(
16F\ 16A-\	.	16a-/JJ	[
=38	=38	=38	=38
*	*	*^	*
[2Cz\ 2Fz\ 2A-z\	.	4ryy	16r	.
.	.	.	16Bn/LL	.
.	.	.	16dn/	.
.	.	.	16a-/JJ	.
.	.	(16bn/LL	4bn\	.
.	.	16B/	.	.
.	.	16d/	.	.
.	.	16a-/JJ	.	.
=39	=39	=39	=39	=39
8C\] 8En\ 8G\	.	4bn\	16bn/LL	>
.	.	.	16Bn/	)
8r	.	.	16en/	)
.	.	.	16g/JJ	)
4r	.	4cc\)	16cc/LL	)
.	.	.	16c/	)
.	.	.	16e/	)
.	.	.	16g/JJ	]
*	*	*v	*v	*
=40	=40	=40	=40
4CC/ 4C/	.	16r	.
.	.	16c/LL	<
.	.	16en/	(
.	.	16g/JJ	(
8.r	.	16cc/LL	(
.	.	16c/	(
.	.	16e/	(
16G\ 16B-\	.	16g/JJ	(
=41	=41	=41	=41
4G\ 4B-\	.	16r	(
.	.	16c/LL	(
.	.	16en/	(
.	.	16g/JJ	(
8.r	.	16cc/LL	(
.	.	16c/	(
.	.	16e/	(
16G\ 16B-\	.	16g/JJ	[
=42	=42	=42	=42
*	*	*^	*
[2Fz\ 2Gz\ (2B-z\	.	4r	16r	.
.	.	.	16c/LL	.
.	.	.	16en/	.
.	.	.	16g/JJ	.
.	.	16cc/LL	4cc\	.
.	.	16c/	.	.
.	.	16e/	.	.
.	.	16g/JJ	.	.
=43	=43	=43	=43	=43
8F\] 8A-\)	.	4cc\	16cc/LL	>
.	.	.	16c/	.
8r	.	.	16en/	.
.	.	.	16g/JJ	.
4r	.	4cc\	16cc/LL	.
.	.	.	16c/	.
.	.	.	16f/	.
.	.	.	16a-/JJ	.
*	*	*v	*v	*
=44	=44	=44	=44
4FF/ 4F/	.	16r	.
.	.	16f/LL	.
.	.	16an/	.
.	.	16cc/JJ	.
8.r	.	16ff/LL	.
.	.	16f/	.
.	.	16a/	.
16c\ 16e-\	.	16cc/JJ	.
=45	=45	=45	=45
4c\ 4e-\	.	16r	.
.	.	16f/LL	.
.	.	16an/	.
.	.	16cc/JJ	.
8.r	.	16ff/LL	.
.	.	16f/	.
.	.	16a/	.
16c\ 16e-\	.	16cc/JJ	.
=46	=46	=46	=46
*	*	*^	*
[2B-\ [2c\ [2e-\	.	16r	4r	.
.	.	16f/LL	.	.
.	.	16an/	.	.
.	.	16cc/JJ	.	.
.	.	16ff/LL	4ff\	.
.	.	16f/	.	.
.	.	16a/	.	.
.	.	16cc/JJ	.	.
*	*	*v	*v	*
=47	=47	=47	=47
8B-\] 8c\] (8e-\L]	.	16f/ 16an/LL	.
.	.	16ff/	.
8B-\ 8d-\	.	16f/ 16b-/	.
.	.	16ff/JJ	.
8A-\ 8c\	.	16f/ 16cc/LL	.
.	.	16ff/	.
8G\ 8B-\J)	.	16f/ 16dd-/	.
.	.	16ff/JJ	.
=48	=48	=48	=48
*	*	*^	*
4C\ 4F\ 4A-\	.	16r	4r	.
.	.	16c/LL	.	.
.	.	16f/	.	.
.	.	16a-/JJ	.	.
8.r	.	16cc/LL	4cc\	.
.	.	16c/	.	.
.	.	16f/	.	.
16F\ 16A-\	.	16a-/JJ	.	.
=49	=49	=49	=49	=49
4C\ 4G\ 4B-\	.	4cc\	16cc/LL	.
.	.	.	16c/	.
.	.	.	16g/	.
.	.	.	16b-/JJ	.
8.r	.	4cc\	16cc/LL	.
.	.	.	16c/	.
.	.	.	16en/	.
16En\ 16G\	.	.	16g/JJ	.
*	*	*v	*v	*
=50	=50	=50	=50
16F\LL	.	4c/ 4f/ 4a-/ 4cc/	.
16c\	.	.	.
16A-\	.	.	.
16F\JJ	.	.	.
16C\LL	.	8.r	.
16A-\	.	.	.
16F\	.	.	.
16C\JJ	.	16ff\ 16aa-\	.
=51	=51	=51	=51
16AA-/LL	.	4ff\ 4aa-\	.
16F/	.	.	.
16C/	.	.	.
16AA-/JJ	.	.	.
16FF/LL	.	8.r	.
16C/	.	.	.
16AA-/	.	.	.
16FF/JJ	.	16ff\ 16aa-\	.
=52	=52	=52	=52
16CC/LL	.	2ff\ (2aa-\	.
16FF/	.	.	.
16AA-/	.	.	.
16C/JJ	.	.	.
16BBn/LL	.	.	.
16C/	.	.	.
16BB/	.	.	.
16C/JJ	.	.	.
=53	=53	=53	=53
16BBn/LL	.	8een\ 8gg\)	.
16C/	.	.	.
16GG/	.	8r	.
16C/JJ	.	.	.
16EEn/LL	.	4r	.
16C/	.	.	.
16GG/	.	.	.
16C/JJ	.	.	.
=54	=54	=54	=54
16CC/LL	.	4r	.
16EEn/	.	.	.
16GG/	.	.	.
16C/JJ	.	.	.
16EE/LL	.	8.r	.
16GG/	.	.	.
16C/	.	.	.
16En/JJ	.	16gg\ 16bb-\	.
=55	=55	=55	=55
16GG/LL	.	4gg\ 4bb-\	.
16C/	.	.	.
16En/	.	.	.
16G/JJ	.	.	.
16C\LL	.	8.r	.
16E\	.	.	.
16G\	.	.	.
16c\JJ	.	16gg\ 16bb-\	.
=56	=56	=56	=56
16F\LL	.	2gg\ (2bb-\	.
16A-\	.	.	.
16c\	.	.	.
16f\JJ	.	.	.
16en\LL	.	.	.
16f\	.	.	.
16e\	.	.	.
16f\JJ	.	.	.
=57	=57	=57	=57
16en\LL	.	8ff\ 8aa-\)	.
16f\	.	.	.
16c\	.	8r	.
16f\JJ	.	.	.
16A-\LL	.	4r	.
16f\	.	.	.
16c\	.	.	.
16f\JJ	.	.	.
=58	=58	=58	=58
16F\LL	.	4r	.
16An\	.	.	.
16c\	.	.	.
16f\JJ	.	.	.
*clefG2	*clefG2	*	*
16An/LL	.	8.r	.
16c/	.	.	.
16f/	.	.	.
16an/JJ	.	16ccc\ 16eee-\	f
=59	=59	=59	=59
16c/LL	.	4ccc\ 4eee-\	.
16f/	.	.	.
16an/	.	.	.
16cc/JJ	.	.	.
16f/LL	.	8.r	.
16a/	.	.	.
16cc/	.	.	.
16ff/JJ	.	16ccc\ 16eee-\	.
=60	=60	=60	=60
16an\LL	.	[2ccc\ [2eee-\	.
16ff\	.	.	.
16een\	.	.	.
16ff\JJ	.	.	.
16a\LL	.	.	.
16ff\	.	.	.
16a\	.	.	.
16ff\JJ	.	.	.
=61	=61	=61	=61
16an\LL	.	8ccc\] (8eee-\L]	>
16ff\	.	.	.
16b-\	.	8bb-\ 8ddd-\	.
16ff\JJ	.	.	.
16cc\LL	.	8aa-\ 8ccc\	.
16ff\	.	.	.
16dd-\	.	8gg\ 8bb-\J)	.
16ff\JJ	.	.	.
=62	=62	=62	=62
16c/LL	.	4ff\ 4aa-\	.
16f/	.	.	.
16a-/	.	.	.
16cc/JJ	.	.	.
16bn\LL	.	8.r	.
16cc\	.	.	.
16b\	.	.	.
16cc\JJ	.	16ff\ 16aa-\ 16fff\	.
=63	=63	=63	=63
16c/LL	.	4gg\ 4bb-\ 4ggg\	.
16en/	.	.	.
16g/	.	.	.
16cc/JJ	.	.	.
16c/LL	.	8.r	.
16g/	.	.	.
16b-/	.	.	.
16cc/JJ	.	16een\ 16gg\ 16eeen\	.
=64	=64	=64	=64
16F/	.	16ff\ 16aa-\ 16fff\	.
16f/ 16a-/LL	.	16cc\LL	<
16c/ 16cc/	.	16ff\	.
16f/ 16a-/JJ	.	16aa-\JJ	.
16c/ 16cc/LL	.	16ccc\LL	.
16f/ 16a-/	.	16ddd-\	.
16c/ 16cc/	.	16ccc\	.
16f/ 16a-/JJ	.	16bb-\JJ	.
=65	=65	=65	=65
16c/ 16cc/LL	.	16aa-\LL	>
16f/ 16a-/	.	16bb-\	.
16c/ 16cc/	.	16aa-\	.
16f/ 16a-/JJ	.	16gg\JJ	.
16c/ 16cc/LL	.	16ff\LL	.
16f/ 16a-/	.	16gg\	.
16c/ 16cc/	.	16aa-\	.
16f/ 16a-/JJ	.	16ff\JJ	.
=66	=66	=66	=66
16F/	.	16r	.
16f/ 16a-/LL	.	16cc\LL	<
16c/ 16cc/	.	16ff\	.
16f/ 16a-/JJ	.	16aa-\JJ	.
16c/ 16cc/LL	.	16ccc\LL	.
16f/ 16a-/	.	16ddd-\	.
16c/ 16cc/	.	16ccc\	.
16f/ 16a-/JJ	.	16bb-\JJ	.
=67	=67	=67	=67
16c/ 16cc/LL	.	16aa-\LL	>
16f/ 16a-/	.	16bb-\	.
16c/ 16cc/	.	16aa-\	.
16f/ 16a-/JJ	.	16gg\JJ	.
16c/ 16cc/LL	.	16ff\LL	.
16f/ 16a-/	.	16gg\	.
16c/ 16cc/	.	16aa-\	.
16f/ 16a-/JJ	.	16ff\JJ	.
*clefF4	*clefF4	*	*
=68	=68	=68	=68
16GG/	.	16r	.
*	*	*8va	*
16F\ 16G\LL	.	16ff\LL	<
16Dn\ 16Bn\	.	16bbn\	.
16F\ 16G\JJ	.	16dddn\JJ	.
16D\ 16B\LL	.	16fff\LL	.
16F\ 16G\	.	16ggg\	.
16D\ 16B\	.	16fff\	.
16F\ 16G\JJ	.	16eee-\JJ	.
=69	=69	=69	=69
16Dn\ 16Bn\LL	.	16dddn\LL	>
16F\ 16A-\	.	16eee-\	.
16D\ 16B\	.	16ddd\	.
16F\ 16A-\JJ	.	16ccc\JJ	.
16D\ 16B\LL	.	16bbn\LL	.
16F\ 16G\	.	16ccc\	.
16D\ 16B\	.	16ddd\	.
16F\ 16G\JJ	.	16bb\JJ	.
=70	=70	=70	=70
16GG/	.	16r	.
16F\ 16G\LL	.	16ff\LL	<
16Dn\ 16Bn\	.	16bbn\	.
16F\ 16G\JJ	.	16dddn\JJ	.
16D\ 16B\LL	.	16fff\LL	.
16F\ 16G\	.	16ggg\	.
16D\ 16B\	.	16fff\	.
16F\ 16G\JJ	.	16eee-\JJ	.
=71	=71	=71	=71
16Dn\ 16Bn\LL	.	16dddn\LL	>
16F\ 16A-\	.	16eee-\	.
16D\ 16B\	.	16ddd\	.
16F\ 16A-\JJ	.	16ccc\JJ	.
16D\ 16B\LL	.	16bbn\LL	.
16F\ 16G\	.	16ccc\	.
16D\ 16B\	.	16ddd\	.
16F\ 16G\JJ	.	16bb\JJ	.
=72	=72	=72	=72
16C/	.	16r	.
*clefG2	*clefG2	*	*
16c/ 16e-/LL	.	16gg\LL	<
16G/ 16g/	.	16ccc\	.
16c/ 16e-/JJ	.	16eee-\JJ	.
16F/ 16g/LL	.	16ggg\LL	.
16c/ 16e-/	.	16aaa-\	.
16G/ 16g/	.	16ggg\	.
16c/ 16e-/JJ	.	16fff\JJ	.
=73	=73	=73	=73
16F/ 16g/LL	.	16eee-\LL	>
16c/ 16e-/	.	16fff\	.
16G/ 16g/	.	16eee-\	.
16c/ 16e-/JJ	.	16dddn\JJ	.
16G/ 16g/LL	.	16ccc\LL	.
16c/ 16e-/	.	16ddd\	.
16G/ 16g/	.	16eee-\	.
16c/ 16e-/JJ	.	16ccc\JJ	.
*clefF4	*clefF4	*	*
=74	=74	=74	=74
8C/	.	16r	.
.	.	16gg\LL	<
*clefG2	*clefG2	*	*
16g/LL	.	16ccc\	.
16e-/JJ	.	16eee-\JJ	.
16cc/LL	.	16ggg\LL	.
16g/	.	16aaa-\	.
16cc/	.	16ggg\	.
16g/JJ	.	16fff\JJ	.
=75	=75	=75	=75
16ee-\LL	.	16eee-\LL	.
16cc\	.	16fff\	.
16ee-\	.	16eee-\	.
16cc\JJ	.	16dddn\JJ	.
16gg\LL	.	16ccc\LL	.
16ee-\	.	16ddd\	.
16gg\	.	16eee-\	.
16ee-\JJ	.	16ccc\JJ	.
=76	=76	=76	=76
4.ff\ (4.aa-\	.	16r	.
.	.	(16ddd-\LL	.
.	.	16eee-\	.
.	.	16ddd-\JJ	.
.	.	16eee-\LL	.
.	.	16ddd-\	.
8ee-\ 8gg\	.	16ccc\	.
.	.	16ddd-\JJ)	.
=77	=77	=77	=77
4ddn\ 4ff\	.	16r	.
.	.	(16bbn\LL	.
.	.	16ccc\	.
.	.	16bb\JJ)	.
4ee-\ 4gg\)	.	16r	.
.	.	(16ccc\LL	.
.	.	16dddn\	.
.	.	16ccc\JJ)	.
=78	=78	=78	=78
4.ff\ (4.aa-\	.	16r	.
.	.	(16ddd-\LL	.
.	.	16eee-\	.
.	.	16ddd-\JJ	.
.	.	16eee-\LL	.
.	.	16ddd-\	.
8ee-\ 8gg\	.	16ccc\	.
.	.	16ddd-\JJ)	.
=79	=79	=79	=79
4ddn\ 4ff\	.	16r	.
.	.	(16bbn\LL	.
.	.	16ccc\	.
.	.	16bb\JJ)	.
4ee-\ 4gg\)	.	16r	.
.	.	(16ccc\LL	.
.	.	16ddd-\	.
.	.	16ccc\JJ)	.
=80	=80	=80	=80
4.ff\ (4.aa-\	.	16r	.
.	.	16ddd-\LL	.
.	.	16eee-\	.
.	.	16ddd-\JJ	.
.	.	16eee-\LL	.
.	.	16ddd-\	.
8ee-\ 8gg\	.	16ccc\	.
.	.	16dddn\JJ	<
*	*	*X8va	*
=81	=81	=81	=81
4ddn\ 4ff\	.	16r	.
.	.	16bbn\LL	.
.	.	16ccc\	.
.	.	16bb\JJ	.
4cc\ 4ee-\	.	16r	.
.	.	16aa-\LL	.
.	.	16bb-\	.
.	.	16aa-\JJ	.
=82	=82	=82	=82
4bn\ 4ddn\	.	16r	.
.	.	16gg\LL	.
.	.	16aa-\	.
.	.	16gg\JJ	.
4an\ 4cc\	.	16r	.
.	.	16ff#\LL	.
.	.	16gg\	.
.	.	16ff#\JJ	.
=83	=83	=83	=83
4a-\ 4cc\	.	16r	.
.	.	16ffn\LL	.
.	.	16gg\	.
.	.	16ff\JJ	.
4g\ 4cc\)	.	16r	.
.	.	16ee-\LL	.
.	.	16ff\	.
.	.	16ee-\JJ	.
=84	=84	=84	=84
*^	*	*	*
4f#/	(2f#\	.	16r	.
.	.	.	16ee-\LL	.
.	.	.	16ff\	.
.	.	.	16ee-\JJ	.
4an/)	.	.	16r	.
.	.	.	16ddn\LL	.
.	.	.	16ee-\	.
.	.	.	16dd\JJ	.
=85	=85	=85	=85	=85
(4e-/	2G\ 2g\	.	16r	.
.	.	.	16cc\LL	.
.	.	.	16ddn\	.
.	.	.	16cc\JJ	.
4dn/)	.	.	16r	.
.	.	.	16bn\LL	.
.	.	.	16cc\	.
.	.	.	16b\JJ	.
*v	*v	*	*	*
*clefF4	*clefF4	*	*
=86	=86	=86	=86
4.F\ 4.A-\ (4.d-\	.	16r	.
.	.	16a-\LL	.
.	.	16aa-\	.
.	.	16a-\JJ	.
.	.	16aa-\LL	.
.	.	16a-\	.
8E-\ 8G\ 8c\	.	16aa-\	.
.	.	16a-\JJ	.
=87	=87	=87	=87
4Dn\ 4F\ 4Bn\	.	16r	.
.	.	16a-\LL	.
.	.	16aa-\	.
.	.	16gg\JJ	.
4E-\ 4G\ 4c\)	.	16ff\LL	.
.	.	16ee-\	.
.	.	16ddn\	.
.	.	16cc\JJ	.
=88	=88	=88	=88
4.F\ 4.A-\ (4.d-\	.	16r	.
*	*	*8va	*
.	.	16aa-\LL	.
.	.	16aaa-\	.
.	.	16aa-\JJ	.
.	.	16aaa-\LL	.
.	.	16aa-\	.
8E-\ 8G\ 8c\	.	16aaa-\	.
.	.	16aa-\JJ	.
=89	=89	=89	=89
4Dn\ 4F\ 4Bn\	.	16r	.
.	.	16aa-\LL	.
.	.	16aaa-\	<
.	.	16ggg\JJ	.
4E-\ 4G\ 4c\)	.	16fff\LL	.
.	.	16eee-\	.
.	.	16dddn\	.
.	.	16ccc\JJ	.
*	*	*X8va	*
=90	=90	=90	=90
4.F\ 4.A-\ (4.d-\	.	16r	.
.	.	16a-\LL	.
.	.	16aa-\	.
.	.	16a-\JJ	.
.	.	16aa-\LL	.
.	.	16a-\	.
8E-\ 8G\ 8c\	.	16aa-\	.
.	.	16a-\JJ	.
=91	=91	=91	=91
4Dn\ 4F\ 4Bn\	.	16r	.
.	.	16aa-\LL	.
.	.	16a-\	.
.	.	16aa-\JJ	.
4C\ 4E-\ 4A-\	.	16r	.
*	*	*8va	*
.	.	16aaa-\LL	.
.	.	16aa-\	.
.	.	16aaa-\JJ	.
=92	=92	=92	=92
4BBn\ 4Dn\ 4G\	.	16r	.
.	.	16ggg\LL	<
.	.	16gg\	.
.	.	16ggg\JJ	.
4AAn\ 4C\ 4E-\ 4F#\	.	16r	.
.	.	16fff#\LL	.
.	.	16ff#\	.
.	.	16fff#\JJ	.
=93	=93	=93	=93
4BBn\ 4Dn\ 4F-\	.	16r	.
.	.	16fffn\LL	.
.	.	16ffn\	.
.	.	16fff\JJ	.
4C\ 4E-\)	.	16r	.
.	.	16eee-\LL	.
.	.	16ee-\ 16gg\	.
.	.	16eee-\JJ	.
=94	=94	=94	=94
*^	*	*	*
(4E-/	2FF#\ 2AAn\	.	16r	.
.	.	.	16eee-\LL	>
.	.	.	16ee-\ 16aan\	.
.	.	.	16eee-\JJ	.
4Dn/	.	.	16r	.
.	.	.	16dddn\LL	.
.	.	.	16ddn\ 16aa\	.
.	.	.	16ddd\JJ	.
*	*	*	*X8va	*
=95	=95	=95	=95	=95
4C/	2GG\	.	16r	.
.	.	.	16ccc\LL	.
.	.	.	16cc\ 16ee-\	.
.	.	.	16ccc\JJ	.
4BBn/)	.	.	16r	.
.	.	.	16bbn\LL	.
.	.	.	16bn\ 16ddn\	.
.	.	.	16bb\JJ	.
*v	*v	*	*	*
=96	=96	=96	=96
8CC/ 8EE-/ 8GG/ 8C/	.	16cc\ 16ee-\ 16gg\ 16ccc\	f
.	.	16g\LL	.
8r	.	16cc\	.
.	.	16ee-\JJ	.
16r	.	16gg\LL	.
16G\LL	.	16aa-\	.
16c\	.	16gg\	.
16e-\JJ	.	16ff\JJ	.
=97	=97	=97	=97
16g\LL	.	16ee-\LL	.
16a-\	.	16ff\	.
16g\	.	16ee-\	.
16f\JJ	.	16ddn\JJ	.
16e-\LL	.	16cc\LL	.
16dn\	.	16b-\	.
16c\	.	16a-\	.
16B-\JJ	.	16g\JJ	.
=98	=98	=98	=98
16A-\LL	.	16f/LL	.
16G\	.	16e-/	.
16F\	.	16dn/	.
16E-\JJ	.	16c/JJ	.
16Dn\LL	.	8Bn/L	.
16E-\	.	.	.
16F\	.	8G/ 8B/ 8d/ 8g/J	.
16E-\JJ	.	.	.
=99	=99	=99	=99
16Dn/LL	.	8G/ 8Bn/ 8f/ 8g/L	.
16C/	.	.	.
16BBn/	.	8G/ 8B/ 8f/ 8g/	.
16AA-/JJ	.	.	.
16GG/LL	.	8G/ 8B/ 8f/ 8g/	.
16FF/	.	.	.
16EE-/	.	8G/ 8B/ 8f/ 8g/J	.
16DDn/JJ	.	.	.
=100	=100	=100	=100
16CC/ 16EE-/ 16GG/ 16C/	.	16G/ 16c/ 16e-/ 16g/	f
*	*	*8va	*
16r	.	16gg\LL	.
8r	.	16ccc\	.
.	.	16eee-\JJ	.
*clefG2	*clefG2	*	*
16r	.	16ggg\LL	.
16g\LL	.	16aaa-\	.
16cc\	.	16ggg\	.
16ee-\JJ	.	16fff\JJ	.
=101	=101	=101	=101
16gg\LL	.	16eee-\LL	.
16aa-\	.	16fff\	.
16gg\	.	16eee-\	.
16ff\JJ	.	16dddn\JJ	.
16ee-\LL	.	16ccc\LL	.
16ddn\	.	16bb-\	.
16cc\	.	16aa-\	.
16b-\JJ	.	16gg\JJ	.
*	*	*X8va	*
=102	=102	=102	=102
16a-/LL	.	16ff\LL	.
16g/	.	16ee-\	.
16f/	.	16ddn\	.
16e-/JJ	.	16cc\JJ	.
16dn/LL	.	8bn\L	.
16e-/	.	.	.
16f/	.	8g\ 8b\ 8dd\ 8gg\J	.
16e-/JJ	.	.	.
*clefF4	*clefF4	*	*
=103	=103	=103	=103
16dn\LL	.	8g\ 8bn\ 8ff\ 8gg\L	.
16c\	.	.	.
16Bn\	.	8g\ 8b\ 8ff\ 8gg\	.
16A-\JJ	.	.	.
16G\LL	.	8g\ 8b\ 8ff\ 8gg\	.
16F\	.	.	.
16E-\	.	8g\ 8b\ 8ff\ 8gg\J	.
16Dn\JJ	.	.	.
=104	=104	=104	=104
16C\LL	.	4g\ 4cc\ 4ee-\ 4gg\	.
16Dn\	.	.	.
16E-\	.	.	.
16F\JJ	.	.	.
16G\LL	.	8r	.
16An\	.	.	.
16Bn\	.	8gg\ 8ccc\ 8eee-\ 8ggg\	.
16c\JJ	.	.	.
=105	=105	=105	=105
16dn\LL	.	8gg\ 8bbn\ 8fff\ 8ggg\L	.
16c\	.	.	.
16Bn\	.	8gg\ 8bb\ 8fff\ 8ggg\	.
16A-\JJ	.	.	.
16G\LL	.	8gg\ 8bb\ 8fff\ 8ggg\	.
16F\	.	.	.
16E-\	.	8gg\ 8bb\ 8fff\ 8ggg\J	.
16Dn\JJ	.	.	.
=106	=106	=106	=106
16C\LL	.	4gg\ 4ccc\ 4eee-\ 4ggg\	.
16Dn\	.	.	.
16E-\	.	.	.
16F\JJ	.	.	.
16G\LL	.	8r	.
16An\	.	.	.
16Bn\	.	8g\ 8cc\ 8ee-\ 8gg\	.
16c\JJ	.	.	.
=107	=107	=107	=107
16dn\LL	.	8g\ 8bn\ 8ff\ 8gg\L	.
16c\	.	.	.
16Bn\	.	8g\ 8b\ 8ff\ 8gg\	.
16A-\JJ	.	.	.
16G\LL	.	8g\ 8b\ 8ff\ 8gg\	.
16F\	.	.	.
16E-\	.	8g\ 8b\ 8ff\ 8gg\J	.
16Dn\JJ	.	.	.
=108	=108	=108	=108
16C\LL	.	4g\ 4cc\ 4ee-\ 4gg\	.
16Dn\	.	.	.
16E-\	.	.	.
16F\JJ	.	.	.
16G\LL	.	8r	.
16An\	.	.	.
16Bn\	.	8cc\ 8ee-\ 8gg\ 8ccc\	.
16c\JJ	.	.	.
=109	=109	=109	=109
16B-\LL	.	8cc\ 8ee-\ 8gg\ 8ccc\L	.
16A-\	.	.	.
16G\	.	8cc\ 8ee-\ 8gg\ 8ccc\	.
16F\JJ	.	.	.
16En\LL	.	8cc\ 8ee-\ 8gg\ 8ccc\	.
16D-\	.	.	.
16C\	.	8cc\ 8ee-\ 8gg\ 8ccc\J	.
16BB-\JJ	.	.	.
=110	=110	=110	=110
16AA-/LL	.	4cc\ 4ff\ 4aa-\ 4ccc\	.
16BB-/	.	.	.
16C/	.	.	.
16Dn/JJ	.	.	.
16En\LL	.	8r	.
16F\	.	.	.
16G\	.	8c/ 8f/ 8a-/ 8cc/	.
16A-\JJ	.	.	.
=111	=111	=111	=111
16G\LL	.	8c/ 8en/ 8b-/ 8cc/L	.
16F\	.	.	.
16En\	.	8c/ 8e/ 8b-/ 8cc/	.
16D-\JJ	.	.	.
16C/LL	.	8c/ 8e/ 8b-/ 8cc/	.
16BB-/	.	.	.
16AA-/	.	8c/ 8e/ 8b-/ 8cc/J	.
16GG/JJ	.	.	.
=112	=112	=112	=112
8GGG-/ 8GG-/	.	16c/ 16e-/ 16an/ 16cc/	ff
.	.	(16An/LL	.
8r	.	16c/	.
.	.	16e-/JJ)	.
4r	.	16g-\LL	.
.	.	16a\	.
.	.	16cc\	.
.	.	16ee-\JJ	.
=113	=113	=113	=113
2r	.	16gg-\LL	.
.	.	16aan\	.
.	.	16ccc\	.
.	.	16eee-\JJ	.
.	.	16ggg-\LL	.
.	.	16eee-\	.
.	.	16ccc\	.
.	.	16aa\JJ	.
=114	=114	=114	=114
2r	.	16gg-\LL	.
.	.	16ee-\	.
.	.	16cc\	.
.	.	16an\JJ	.
.	.	16g-/LL	.
.	.	16e-/	.
.	.	16c/	.
.	.	16An/JJ	.
*	*	*clefF4	*clefF4
=115	=115	=115	=115
4r	.	16G-\LL	.
.	.	16E-\	.
.	.	16C\	.
.	.	16AAn\JJ	.
16r	.	16GG-\	.
16EE-/LL	.	16r	.
16CC/	.	8r	.
16AAAn/JJ	.	.	.
=116	=116	=116	=116
16GGG-/LL	.	2r	.
16AAAn/	.	.	.
16CC/	.	.	.
16EE-/JJ	.	.	.
16GGG-/LL	.	.	.
16AAA/	.	.	.
16CC/	.	.	.
16EE-/JJ	.	.	.
=117	=117	=117	=117
16GGG-/LL	.	2r	.
16AAAn/	.	.	.
16CC/	.	.	.
16EE-/JJ	.	.	.
16GGG-/LL	.	.	.
16AAA/	.	.	.
16CC/	.	.	.
16EE-/JJ	.	.	.
*	*	*clefG2	*clefG2
=118!|:	=118!|:	=118!|:	=118!|:
*>B	*>B	*>B	*>B
4FFF/	.	16r	.
.	.	16An/LL	p
.	.	16c/	.
.	.	16e-/JJ	.
4r	.	16g-/LL	.
.	.	16a-/	.
.	.	16g-/	.
.	.	16f/JJ	.
=119	=119	=119	=119
4r	.	16e-/LL	.
.	.	16f/	.
.	.	16e-/	.
.	.	16d-/JJ	.
8.r	.	16c/LL	.
.	.	16d-/	.
.	.	16e-/	.
16FF/	.	16c/JJ	.
=120	=120	=120	=120
4FFF/	.	16r	.
.	.	16An/LL	.
.	.	16c/	.
.	.	16e-/JJ	.
4r	.	16g-/LL	.
.	.	16a-/	.
.	.	16g-/	.
.	.	16f/JJ	.
=121	=121	=121	=121
4r	.	16e-/LL	.
.	.	16f/	.
.	.	16e-/	.
.	.	16d-/JJ	.
8.r	.	16c/LL	.
.	.	16d-/	.
.	.	16e-/	.
16FF/	.	16c/JJ	.
=122	=122	=122	=122
4FFF/	.	16r	.
.	.	16An/LL	.
.	.	16c/	.
.	.	16e-/JJ	.
8r	.	16g-/LL	.
.	.	16a-/	.
16An\LL	.	16g-/	.
16B-\JJ	.	16f/JJ	.
=123	=123	=123	=123
16c\LL	.	8e-/L	.
16d-\	.	.	.
16c\	.	16e-/L	.
16B-\JJ	.	16f/JJ	.
8An\L	.	16g-/LL	.
.	.	16a-/	.
16A\L	.	16g-/	.
16B-\JJ	.	16f/JJ	.
=124	=124	=124	=124
16c\LL	.	8e-/L	.
16d-\	.	.	.
16c\	.	16e-/L	.
16B-\JJ	.	16f/JJ	.
8An\L	.	16g-/LL	.
.	.	16a-/	.
16A\L	.	16g-/	.
16B-\JJ	.	16f/JJ	.
=125	=125	=125	=125
16c\LL	.	8e-/	.
16d-\	.	.	.
16c\	.	8g-\ (8gg-\L	>
16B-\JJ	.	.	.
16An\LL	.	8f\ 8ff\	.
16G-\	.	.	.
16F\	.	8an\ 8aan\J)	.
16E-\JJ	.	.	.
=126	=126	=126	=126
*^	*	*	*
16D-/LL	[2D-\	.	16b-\ 16bb-\	.
16F/	.	.	16f\LL	.
16B-/	.	.	16b-\	.
16F/JJ	.	.	16dd-\JJ	.
16B-/LL	.	.	16ff\LL	.
16F/	.	.	16gg-\	.
16B-/	.	.	16ff\	.
16F/JJ	.	.	16ee-\JJ	.
=127	=127	=127	=127	=127
16B-/LL	2D-\]	.	16dd-\LL	.
16F/	.	.	16ee-\	.
16B-/	.	.	16dd-\	.
16F/JJ	.	.	16cc\JJ	.
16B-/LL	.	.	16b-\LL	.
16F/	.	.	16cc\	.
16B-/	.	.	16dd-\	.
16F/JJ	.	.	16b-\JJ	.
*v	*v	*	*	*
=128	=128	=128	=128
16D-/LL	.	16r	.
(16F/	.	16f\LL	.
16B-/	.	16b-\	.
16F/JJ	.	16dd-\JJ	.
16B-/LL	.	16ff\LL	.
16F/	.	16gg-\	.
16B-/	.	16ff\	.
16F/JJ	.	16ee-\JJ	.
=129	=129	=129	=129
*^	*	*	*
16B-/LL	2D-\)	.	16dd-\LL	.
16F/	.	.	16ee-\	.
16B-/	.	.	16dd-\	.
16F/JJ	.	.	16cc\JJ	.
16B-/LL	.	.	16b-\LL	.
16F/	.	.	16cc\	.
16B-/	.	.	16dd-\	.
16F/JJ	.	.	16b-\JJ	.
*v	*v	*	*	*
=130	=130	=130	=130
(16E-/LL	.	16r	.
16G-/	.	16g-\LL	.
16c-/	.	16cc-\	.
16G-/JJ	.	16ee-\JJ	.
16c-/LL	.	16gg-\LL	.
16G-/	.	16aa-\	.
16c-/	.	16gg-\	.
16G-/JJ	.	16ff\JJ	.
=131	=131	=131	=131
*^	*	*	*
16c-/LL	2E-\)	.	16ee-\LL	.
16G-/	.	.	16ff\	.
16c-/	.	.	16ee-\	.
16G-/JJ	.	.	16dd-\JJ	.
16c-/LL	.	.	16cc-\LL	.
16G-/	.	.	16dd-\	.
16c-/	.	.	16ee-\	.
16G-/JJ	.	.	16cc-\JJ	.
=132	=132	=132	=132	=132
16F/LL	2F\	.	16b-\LL	.
16B-/	.	.	16ccn\	.
16d-/	.	.	16b-\	.
16B-/JJ	.	.	16an\JJ	.
16d-/LL	.	.	16b-\LL	>
16B-/	.	.	16cc\	.
16d-/	.	.	16dd-\	.
16B-/JJ	.	.	16b-\JJ	.
=133	=133	=133	=133	=133
16E-/LL	2E-\	.	16an/LL	.
16F/	.	.	16b-/	.
16c/	.	.	16a/	.
16F/JJ	.	.	16gn/JJ	.
16c/LL	.	.	16a/LL	.
16F/	.	.	16b-/	.
16c/	.	.	16cc/	.
16F/JJ	.	.	16a/JJ	.
=134	=134	=134	=134	=134
16D-\LL	4r	.	8b-\L	.
16f\JJ	.	.	.	.
8r	.	.	16b-\L	.
.	.	.	16dd-\JJ	.
*v	*v	*	*	*
*clefG2	*clefG2	*	*
*^	*	*	*
(4B-\	16B-/LL	.	16ff\LL	.
.	16d-/	.	16gg-\	.
.	16f/	.	16ff\	.
.	16d-/JJ	.	16ee-\JJ	.
=135	=135	=135	=135	=135
*	*	*	*^	*
16An/LL	4An\	.	4r	16dd-\LL	.
16d-/	.	.	.	16ee-\	.
16f/	.	.	.	16dd-\	.
16d-/JJ	.	.	.	16cc\JJ	.
16B-/LL)	4B-\	.	(4bb-/	16b-\LL	.
16d-/	.	.	.	16cc\	.
16f/	.	.	.	16dd-\	.
16d-/JJ	.	.	.	16b-\JJ	.
*v	*v	*	*	*	*
*clefF4	*clefF4	*	*	*
=136	=136	=136	=136	=136
*^	*	*	*	*
16D-\LL	4r	.	4aan/	8r	.
16f\JJ	.	.	.	.	.
8r	.	.	.	16b-\LL	.
.	.	.	.	16dd-\JJ	.
*v	*v	*	*	*	*
*clefG2	*clefG2	*	*	*
*^	*	*	*	*
4B-\	(16B-/LL	.	4bb-/)	16ff\LL	.
.	16d-/	.	.	16gg-\	.
.	16f/	.	.	16ff\	.
.	16d-/JJ	.	.	16ee-\JJ	.
=137	=137	=137	=137	=137	=137
16An/LL	4An\	.	4r	16dd-\LL	.
16d-/	.	.	.	16ee-\	.
16f/	.	.	.	16dd-\	.
16d-/JJ	.	.	.	16cc\JJ	.
16B-/LL)	4B-\	.	(4bb-/	16b-\LL	.
16d-/	.	.	.	16cc\	.
16f/	.	.	.	16dd-\	.
16d-/JJ	.	.	.	16b-\JJ	.
*v	*v	*	*	*	*
*	*	*v	*v	*
*clefF4	*clefF4	*	*
=138	=138	=138	=138
16E-\	.	16cc-\ 16ccc-\)	f
*clefG2	*clefG2	*	*
*	*	*8va	*
16g-/ 16cc-/LL	.	16gg-\LL	.
16e-/	.	16ccc-\	.
16g-/ 16cc-/JJ	.	16eee-\JJ	.
16e-/LL	.	16ggg-\LL	.
16g-/ 16cc-/	.	16aaa-\	.
16e-/	.	16ggg-\	.
16g-/ 16cc-/JJ	.	16fff\JJ	.
=139	=139	=139	=139
16e-/LL	.	16eee-\LL	.
16g-/ 16cc-/	.	16fff\	.
16e-/	.	16eee-\	.
16g-/ 16cc-/JJ	.	16ddd-\JJ	.
16e-/LL	.	16ccc-\LL	.
16g-/ 16cc-/	.	16ddd-\	.
16e-/	.	16ccc-\	.
16g-/ 16cc-/JJ	.	16bb-\JJ	.
=140	=140	=140	=140
16f\LL	.	16aan\LL	.
16an\ 16cc\ 16ee-\	.	16cccn\	.
16f\	.	16eee-\	.
16a\ 16cc\ 16ee-\JJ	.	16ddd-\JJ	.
16f\LL	.	16ccc\LL	.
16a\ 16cc\ 16ee-\	.	16ddd-\	.
16f\	.	16ccc\	.
16a\ 16cc\ 16ee-\JJ	.	16bb-\JJ	.
*	*	*X8va	*
=141	=141	=141	=141
16f/LL	.	16aan\LL	.
16an/	.	16bb-\	.
16f/	.	16aa\	.
16a/JJ	.	16gg-\JJ	.
*clefF4	*clefF4	*	*
16F\LL	.	16ff\LL	.
16f\	.	16ee-\	.
16F\	.	16dd-\	.
16f\JJ	.	16cc\JJ	.
=142	=142	=142	=142
8BB-/	.	8b-''\	.
*clefG2	*clefG2	*	*
16B-/ 16d-/LL	p	4ff\	.
16f/JJ	.	.	.
16B-/ 16d-/LL	.	.	.
16f/	.	.	.
16B-/ 16d-/	.	8ff''\	.
16f/JJ	.	.	.
=143	=143	=143	=143
16B-/ 16d-/LL	.	8ff''\	.
16f/	.	.	.
16B-/ 16d-/	.	4gg-\	.
16en/JJ	.	.	.
16B-/ 16d-/LL	.	.	.
16e/	.	.	.
16B-/ 16d-/	.	8gg-''\	.
16e/JJ	.	.	.
=144	=144	=144	=144
16An/ 16c/LL	.	8gg-''\	.
16en/	.	.	.
16A/ 16c/	.	4ff\	.
16f/JJ	.	.	.
16A/ 16c/LL	.	.	.
16f/	.	.	.
16A/ 16c/	.	8ff''\	.
16f/JJ	.	.	.
=145	=145	=145	=145
16An/ 16c/LL	.	8ff''\L	.
16f/	.	.	.
16A/ 16c/	.	8cc''\	.
16f/JJ	.	.	.
16A/ 16c/LL	.	8dd-''\	.
16f/	.	.	.
16A/ 16c/	.	8ee-''\J	.
16f/JJ	.	.	.
=146	=146	=146	=146
16B-/ 16d-/LL	.	8dd-''\	.
16f/	f	.	.
16B-/ 16d-/	.	4ff\ 4fff\	.
16f/JJ	.	.	.
16B-/ 16d-/LL	.	.	.
16f/	.	.	.
16B-/ 16d-/	.	8ff''\ 8fff''\	.
16f/JJ	.	.	.
=147	=147	=147	=147
16B-/ 16d-/LL	.	8ff''\ 8fff''\	.
16f/	.	.	.
16B-/ 16d-/	.	4gg-\ 4ggg-\	.
16en/JJ	.	.	.
16B-/ 16d-/LL	.	.	.
16e/	.	.	.
16B-/ 16d-/	.	8gg-''\ 8ggg-''\	.
16e/JJ	.	.	.
=148	=148	=148	=148
16An/ 16c/LL	.	8gg-''\ 8ggg-''\	.
16en/	.	.	.
16A/ 16c/	.	4ff\ 4fff\	.
16f/JJ	.	.	.
16A/ 16c/LL	.	.	.
16f/	.	.	.
16A/ 16c/	.	8ff''\ 8fff''\	.
16f/JJ	.	.	.
=149	=149	=149	=149
16An/ 16c/LL	.	8ff''\ 8fff''\L	.
16f/	.	.	.
16A/ 16c/	.	8cc''\ 8ccc''\	.
16f/JJ	.	.	.
16A/ 16c/LL	.	8dd-''\ 8ddd-''\	.
16f/	.	.	.
16A/ 16c/	.	8ee-''\ 8eee-''\J	.
16f/JJ	.	.	.
=150	=150	=150	=150
16d-/LL	.	8dd-\ 8ddd-\	.
16f/JJ	.	.	.
*clefF4	*clefF4	*	*
16En\ 16G\LL	p	4cc\	.
16c\JJ	.	.	.
16E\ 16G\LL	.	.	.
16c\	.	.	.
16E\ 16G\	.	8cc''\	.
16c\JJ	.	.	.
=151	=151	=151	=151
16F\ 16A-\LL	.	8cc''\	.
16c\	.	.	.
16F\ 16A-\	.	4bn\	.
16dn\JJ	.	.	.
16F\ 16A-\LL	.	.	.
16d\	.	.	.
16F\ 16A-\	.	8b''\	.
16d\JJ	.	.	.
=152	=152	=152	=152
16En\ 16G\LL	.	8bn''\	.
16dn\	.	.	.
16E\ 16G\	.	4cc\	.
16c\JJ	.	.	.
16E\ 16G\LL	.	.	.
16c\	.	.	.
16E\ 16G\	.	8cc''\	.
16c\JJ	.	.	.
=153	=153	=153	=153
16En\ 16G\LL	.	8cc''/L	.
16c\	.	.	.
16E\ 16G\	.	8g''/	.
16c\JJ	.	.	.
16E\ 16G\LL	.	8a-''/	.
16c\	.	.	.
16E\ 16G\	.	8b-''/J	.
16c\JJ	.	.	.
=154	=154	=154	=154
16F\ 16A-\LL	.	8a-''/	.
16c\	.	.	.
16F\ 16A-\	f	4cc\ 4ccc\	.
16c\JJ	.	.	.
16F\ 16A-\LL	.	.	.
16c\	.	.	.
16F\ 16A-\	.	8cc''\ 8ccc''\	.
16c\JJ	.	.	.
=155	=155	=155	=155
16F\ 16A-\LL	.	8cc''\ 8ccc''\	.
16c\	.	.	.
16F\ 16A-\	.	4bn\ 4bbn\	.
16dn\JJ	.	.	.
16F\ 16A-\LL	.	.	.
16d\	.	.	.
16F\ 16A-\	.	8b''\ 8bb''\	.
16d\JJ	.	.	.
=156	=156	=156	=156
16En\ 16G\LL	.	8bn''\ 8bbn''\	.
16dn\	.	.	.
16E\ 16G\	.	4cc\ 4ccc\	.
16c\JJ	.	.	.
16E\ 16G\LL	.	.	.
16c\	.	.	.
16E\ 16G\	.	8cc''\ 8ccc''\	.
16c\JJ	.	.	.
=157	=157	=157	=157
16En\ 16G\LL	.	8cc''\ 8ccc''\L	.
16c\	.	.	.
16E\ 16G\	.	8g''\ 8gg''\	.
16c\JJ	.	.	.
16E\ 16G\LL	.	8a-''\ 8aa-''\	.
16c\	.	.	.
16E\ 16G\	.	8b-''\ 8bb-''\J	.
16c\JJ	.	.	.
=158	=158	=158	=158
4FF/ 4AA-/ 4C/ 4F/	.	16a-\ 16aa-\	f
.	.	16c/LL	.
.	.	16f/	.
.	.	16a-/JJ	.
16r	.	16cc\LL	.
16C\LL	.	16dd-\	.
16F\	.	16cc\	.
16A-\JJ	.	16b-\JJ	.
=159	=159	=159	=159
16c\LL	.	16a-/LL	.
16d-\	.	16b-/	.
16c\	.	16a-/	.
16B-\JJ	.	16g/JJ	.
16A-\LL	.	16f/LL	.
16B-\	.	16g/	.
16c\	.	16a-/	.
16A-\JJ	.	16f/JJ	.
=160	=160	=160	=160
16B-\LL	.	16g-/LL	.
16c\	.	16d-/	.
16B-\	.	16g-/	.
16A-\JJ	.	16b-/JJ	.
16G-\LL	.	16dd-\LL	.
16D-\	.	16ee-\	.
16G-\	.	16dd-\	.
16B-\JJ	.	16cc\JJ	.
=161	=161	=161	=161
16d-\LL	.	16b-\LL	.
16e-\	.	16cc\	.
16d-\	.	16b-\	.
16c\JJ	.	16a-\JJ	.
16B-\LL	.	16g-/LL	.
16c\	.	16a-/	.
16d-\	.	16b-/	.
16B-\JJ	.	16g-/JJ	.
=162	=162	=162	=162
16c\LL	.	16an/LL	.
16d-\	.	16e-/	.
16c\	.	16a/	.
16B-\JJ	.	16cc/JJ	.
16An\LL	.	16ee-\LL	.
16E-\	.	16ff\	.
16A\	.	16ee-\	.
16c\JJ	.	16dd-\JJ	.
=163	=163	=163	=163
16e-\LL	.	16cc\LL	.
16f\	.	16dd-\	.
16e-\	.	16cc\	.
16d-\JJ	.	16b-\JJ	.
16c\LL	.	16an\LL	.
16d-\	.	16b-\	.
16e-\	.	16cc\	.
16c\JJ	.	16a\JJ	ff
=164	=164	=164	=164
16d-\LL	.	16b-\LL	.
16F\	.	16f\	.
16B-\	.	16b-\	.
16d-\JJ	.	16dd-\JJ	.
16f\LL	.	16ff\LL	.
16g-\	.	16gg-\	.
16f\	.	16ff\	.
16e-\JJ	.	16ee-\JJ	.
=165	=165	=165	=165
16d-\LL	.	16dd-/LL	.
16c\	.	16cc/	.
16B-\	.	16b-/	.
16A-\JJ	.	16a-/JJ	.
16G-\LL	.	16g-/LL	.
16F\	.	16f/	.
16E-\	.	16e-/	.
16D-\JJ	.	16d-/JJ	.
*	*	*clefF4	*clefF4
=166	=166	=166	=166
16C/LL	.	16c\LL	.
16BB-/	.	16B-\	.
16AA-/	.	16A-\	.
16GG-/JJ	.	16G-\JJ	.
16FF/LL	.	16F\LL	.
16EE-/	.	16E-\	.
16DD-/	.	16D-\	.
16CC/JJ	.	16C\JJ	.
=167	=167	=167	=167
16BBB-/LL	.	16BB-\LL	.
16CC/	.	16C\	.
16DD-/	.	16D-\	.
16CC/JJ	.	16C\JJ	.
8BBB-/L	.	8BB-\L	.
8BBBn/J	.	8BBn\ 8Dn\ 8F\ 8A-\J	.
=168	=168	=168	=168
8CC'/L	.	16C\ 16En\ 16G\LL	.
.	.	16C\ 16c\JJ	.
8EEn'/	.	16r	.
.	.	16C\ 16c\	.
8CC'/	.	16r	.
.	.	16C\ 16c\LL	.
8FF'/J	.	16r	.
.	.	16C\ 16c\JJ	.
=169	=169	=169	=169
8CC'/L	.	16r	.
.	.	16C\ 16c\LL	.
8GG'/	.	16r	.
.	.	16C\ 16c\	.
8CC'/	.	16r	.
.	.	16C\ 16c\	.
8AA-'/J	.	16r	.
.	.	16C\ 16c\JJ	.
*	*	*clefG2	*clefG2
=170	=170	=170	=170
8CC'/L	.	16r	.
.	.	16c/ 16cc/LL	.
8BB-'/	.	16r	.
.	.	16c/ 16cc/	.
8CC'/	.	16r	.
.	.	16c/ 16cc/	.
8AA-'/J	.	16r	.
.	.	16c/ 16cc/JJ	.
=171	=171	=171	=171
8CC'/L	.	16r	.
.	.	16c/ 16cc/LL	.
8GG'/	.	16r	.
.	.	16c/ 16cc/	.
8CC'/	.	16r	.
.	.	16c/ 16cc/	.
8FF'/J	.	16r	.
.	.	16c/ 16cc/JJ	.
=172	=172	=172	=172
8CC'/L	.	16r	.
.	.	16cc\ 16ccc\LL	.
8EEn'/	.	16r	.
.	.	16cc\ 16ccc\	.
8CC'/	.	16r	.
.	.	16cc\ 16ccc\	.
8FF'/J	.	16r	.
.	.	16cc\ 16ccc\JJ	.
=173	=173	=173	=173
8CC'/L	.	16r	.
.	.	16cc\ 16ccc\LL	.
8GG'/	.	16r	.
.	.	16cc\ 16ccc\	.
8CC'/	.	16r	.
.	.	16cc\ 16ccc\	.
8AA-'/J	.	16r	.
.	.	16cc\ 16ccc\JJ	.
=174	=174	=174	=174
*	*	*8va	*
8CC'/L	.	16r	.
.	.	16ccc\ 16cccc\LL	.
8AAn'/	.	16r	.
.	.	16ccc\ 16cccc\	.
8CC'/	.	16r	.
.	.	16ccc\ 16cccc\	.
8BB-'/J	.	16r	.
.	.	16ccc\ 16cccc\JJ	.
=175	=175	=175	=175
8CC'/L	.	16r	.
.	.	16ccc\ 16cccc\LL	.
8BBn'/	.	16r	.
.	.	16ccc\ 16cccc\	.
8CC'/	.	16r	.
.	.	16ccc\ 16cccc\	.
8C'/J	.	16r	.
.	.	16ccc\ 16cccc\JJ	.
*	*	*X8va	*
*	*	*clefF4	*clefF4
=176	=176	=176	=176
8BBB-/ 8DD-/ 8GG-/ 8BB-/	.	16r	.
.	.	16D-\LL	ff
8r	.	16G-\	.
.	.	16B-\JJ	.
16r	.	8d-\	.
16BB-\LL	.	.	.
16D-\	.	8r	.
16G-\JJ	.	.	.
*	*	*clefG2	*clefG2
=177	=177	=177	=177
8B-\	.	16r	.
.	.	16d-/LL	.
8r	.	16g-/	.
.	.	16b-/JJ	.
*clefG2	*clefG2	*	*
16r	.	8dd-\	.
16B-/LL	.	.	.
16d-/	.	8r	.
16g-/JJ	.	.	.
=178	=178	=178	=178
8b-\	.	16r	.
.	.	16dd-\LL	.
8r	.	16gg-\	.
.	.	16bb-\JJ	.
4r	.	8ddd-\	.
.	.	8r	.
=179	=179	=179	=179
2r	.	2r	.
*clefF4	*clefF4	*clefF4	*clefF4
=180	=180	=180	=180
8CC/ 8GGn/ 8BB-/ 8C/	.	16r	.
.	.	16En\LL	ff
8r	.	16Gn\	.
.	.	16B-\JJ	.
*	*	*clefG2	*clefG2
16r	.	8en/	.
16C\LL	.	.	.
16G\	.	8r	.
16B-\JJ	.	.	.
=181	=181	=181	=181
8c\	.	16r	.
.	.	16en/LL	.
8r	.	16g/	.
.	.	16b-/JJ	.
*clefG2	*clefG2	*	*
16r	.	8een\	.
16c/LL	.	.	.
16g/	.	8r	.
16b-/JJ	.	.	.
=182	=182	=182	=182
8cc\	.	16r	.
.	.	16een\LL	.
8r	.	16gg\	.
.	.	16bb-\JJ	.
4r	.	8eeen\	.
.	.	8r	.
=183	=183	=183	=183
2r	.	2r	.
*clefF4	*clefF4	*	*
=184	=184	=184	=184
12DD-/L	.	4r	.
12D-/	.	.	.
12En/J	.	.	.
4r	.	16G/LL	p
.	.	16B-/	.
.	.	16d-/	.
.	.	16en/JJ	.
=185	=185	=185	=185
2r	.	8g/	.
.	.	8r	.
.	.	4r	.
=186	=186	=186	=186
12EEn/L	.	4r	.
12En/	.	.	.
12G/J	.	.	.
4r	.	16B-/LL	>
.	.	16d-/	.
.	.	16en/	.
.	.	16g/JJ	.
=187	=187	=187	=187
2r	.	8b-\	.
.	.	8r	.
.	.	4r	.
=188	=188	=188	=188
12GG\L	.	4r	.
12G\	.	.	.
12B-\J	.	.	.
4r	.	16d-/LL	.
.	.	16en/	.
.	.	16g/	.
.	.	16b-/JJ	.
=189	=189	=189	=189
2r	.	8dd-\	.
.	.	8r	.
.	.	4r	.
=190	=190	=190	=190
12BB-\L	.	4r	.
12B-\	.	.	.
12d-\J	.	.	.
4r	.	16en/LL	.
.	.	16g/	.
.	.	16b-/	.
.	.	16dd-/JJ	.
=191	=191	=191	=191
2r	.	8een\	pp
.	.	8r	.
.	.	4r	.
=192	=192	=192	=192
8D-\L	.	2r	.
8En\	.	.	.
8G\	.	.	.
8B-\J	.	.	.
=193	=193	=193	=193
8d-\	.	8r	.
8r	.	8en/L	.
4r	.	8g/	.
.	.	8b-/J	.
=194	=194	=194	=194
2r	.	8dd-\L	.
.	.	8een\	.
.	.	8gg\	.
.	.	8bb-\J	.
=195	=195	=195	=195
2r	.	8ddd-\L	.
.	.	8eeen\	.
.	.	8ggg\	.
.	.	8bbb-\J	.
=196	=196	=196	=196
2r	.	8ggg\L	.
.	.	8eeen\	.
.	.	8ddd-\	.
.	.	8bb-\J	.
=197	=197	=197	=197
2r	.	8gg\L	.
.	.	8een\	.
.	.	8dd-\	.
.	.	8b-\J	.
=198	=198	=198	=198
2r	.	8g/L	.
.	.	8en/	.
.	.	8d-/	.
.	.	8B-/J	.
*	*	*clefF4	*clefF4
=199	=199	=199	=199
2r	.	8G\L	.
.	.	8En\	.
.	.	8D-\	.
.	.	8BB-\J	.
=200	=200	=200	=200
2r	.	2GG/	.
=201	=201	=201	=201
2EEn/	.	2r	.
=202	=202	=202	=202
2DD-/	.	2r	.
=203	=203	=203	=203
2BBB-/	.	2r	.
=204	=204	=204	=204
[2GGG/	.	2r	.
=205	=205	=205	=205
2GGG/]	.	2r	.
=206	=206	=206	=206
[2CC/	.	4.GG/ 4.BB-/ 4.C/ 4.En/	pp
.	.	8r	.
*	*	*clefG2	*clefG2
=207	=207	=207	=207
2CC/_	.	2r	.
=208	=208	=208	=208
2CC/_	.	4.G/ 4.B-/ 4.c/ 4.en/	.
.	.	8r	.
=209	=209	=209	=209
2CC/_	.	4.g\ 4.b-\ 4.cc\ 4.een\	.
.	.	8r	.
=210	=210	=210	=210
2CC/_	.	4.gg\ 4.bb-\ 4.ccc\ 4.eeen\	.
.	.	8r	.
*	*	*clefF4	*clefF4
=211	=211	=211	=211
4CC/]	.	4.GG/ 4.BB-/ 4.C/ 4.En/	.
8.CC/L	.	.	.
.	.	8r	.
16CC/Jk	.	.	.
=212	=212	=212	=212
4FFF/ 4FF/	.	16r	.
.	.	16C\LL	pp
.	.	16F\	.
.	.	16A-\JJ	.
4r	.	16c\LL	.
.	.	16d-\	.
.	.	16c\	.
.	.	16B-\JJ	.
=213	=213	=213	=213
2r	.	16A-\LL	.
.	.	16B-\	.
.	.	16A-\	.
.	.	16G\JJ	.
.	.	16F\LL	.
.	.	16G\	.
.	.	16A-\	.
.	.	16F\JJ	.
=214	=214	=214	=214
4FFF/ 4FF/	.	16r	.
.	.	16C\LL	.
.	.	16F\	.
.	.	16A-\JJ	.
8.r	.	16c\LL	.
.	.	16d-\	.
.	.	16c\	.
*clefG2	*clefG2	*	*
16a-\ 16cc\	.	16B-\JJ	.
=215	=215	=215	=215
4a-/ (4cc/	.	16A-\LL	.
.	.	16B-\	.
.	.	16A-\	.
.	.	16G\JJ	.
8f/ 8a-/)	.	16F\LL	.
.	.	16G\	.
8r	.	16A-\	.
.	.	16F\JJ	.
*clefF4	*clefF4	*	*
=216	=216	=216	=216
4BBB-/ 4BB-/	.	16r	.
.	.	16D-\LL	.
.	.	16G-\	.
.	.	16B-\JJ	.
8.r	.	16d-\LL	.
.	.	16e-\	.
.	.	16d-\	.
*clefG2	*clefG2	*	*
16b-\ 16dd-\	.	16c\JJ	.
=217	=217	=217	=217
2b-\ 2dd-\	.	16B-\LL	.
.	.	16c\	.
.	.	16B-\	.
.	.	16A-\JJ	.
.	.	16G-\LL	.
.	.	16A-\	.
.	.	16G-\	.
.	.	16F\JJ	.
=218	=218	=218	=218
8b-\ 8cc\	p	16En\LL	.
.	.	16F\	.
*clefF4	*clefF4	*	*
8CC/ 8C/	.	16Gn\	.
.	.	16E\JJ	.
8r	.	16F\LL	.
.	.	16G\	.
8DD-/ 8D-/	.	16A-\	.
.	.	16F\JJ	.
=219	=219	=219	=219
8r	.	16G\LL	.
.	.	16A-\	.
8BBB-/ 8BB-/	.	16B-\	.
.	.	16G\JJ	.
8r	.	16En\LL	.
.	.	16F\	.
8CC/ 8C/	.	16G\	.
.	.	16E\JJ	.
=220	=220	=220	=220
16FFF/ 16FF/	.	4F\	.
16C\LL	.	.	.
16F\	.	.	.
16A-\JJ	.	.	.
16c\LL	.	8r	.
16d-\	.	.	.
*	*	*clefG2	*clefG2
16c\	.	(8en/	.
16B-\JJ	.	.	.
=221	=221	=221	=221
16A-\LL	.	8f/L)	.
16B-\	.	.	.
16A-\	.	8g''/	.
16G\JJ	.	.	.
16F\LL	.	8a-''/	.
16G\	.	.	.
16A-\	.	8f''/J	.
16F\JJ	.	.	.
=222	=222	=222	=222
16A-\LL	.	4r	.
16C\	.	.	.
16F\	.	.	.
16A-\JJ	.	.	.
16c\LL	.	8r	.
16d-\	.	.	.
16c\	.	8en\ (8een\	.
16B-\JJ	.	.	.
=223	=223	=223	=223
16A-\LL	.	8f\ 8ff\L)	.
16B-\	.	.	.
16A-\	.	8g''\ 8gg''\	.
16G\JJ	.	.	.
16F\LL	.	8a-''\ 8aa-''\	.
16G\	.	.	.
16A-\	.	8f''\ 8ff''\J	.
16F\JJ	.	.	.
=224	=224	=224	=224
16B-\LL	.	4r	.
16D-\	.	.	.
16G-\	.	.	.
16B-\JJ	.	.	.
16d-\LL	.	8r	.
16e-\	.	.	.
16d-\	.	8f\ (8ff\	.
16c\JJ	.	.	.
=225	=225	=225	=225
16B-\LL	.	8g-\ 8gg-\L	.
16c\	.	.	.
16B-\	.	8b-\ 8bb-\)	.
16A-\JJ	.	.	.
16G-\LL	.	8dd-'\ 8ddd-'\	.
16A-\	.	.	.
16G-\	.	8dd-'\ 8ddd-'\J	.
16F\JJ	.	.	.
=226	=226	=226	=226
16En\LL	.	4dd-\ (4ddd-\	.
16F\	.	.	.
16Gn\	.	.	.
16A-\JJ	.	.	.
16B-\LL	.	[4cc\ [4ccc\)	.
16A-\	.	.	.
16G\	.	.	.
16F\JJ	.	.	.
=227	=227	=227	=227
16En\LL	.	4cc\] (4ccc\]	.
16F\	.	.	.
16E\	.	.	.
16D-\JJ	.	.	.
16C\LL	.	4en\ 4een\	.
16BB-\	.	.	.
16AA-\	.	.	.
16GG\JJ	.	.	.
=228	=228	=228	=228
4FF/	.	16f\ 16ff\)	p
.	.	16c/LL	.
.	.	16f/	.
.	.	16a-/JJ	.
8.r	.	16cc/LL	<
.	.	16c/	.
.	.	16f/	.
16F\ 16A-\	.	16a-/JJ	.
=229	=229	=229	=229
4F\ 4A-\	.	16r	.
.	.	16c/LL	.
.	.	16f/	.
.	.	16a-/JJ	.
8.r	.	16cc/LL	.
.	.	16c/	.
.	.	16f/	.
16F\ 16A-\	.	16a-/JJ	.
=230	=230	=230	=230
*	*	*^	*
[2C\ 2F\ (2A-\	.	4r	16r	.
.	.	.	16Bn/LL	.
.	.	.	16dn/	.
.	.	.	16a-/JJ	.
.	.	16bn/LL	(4bn\	.
.	.	16B/	.	.
.	.	16d/	.	.
.	.	16a-/JJ	.	.
=231	=231	=231	=231	=231
8C\] 8En\ 8G\)	.	4bn\	16bn/LL	.
.	.	.	16Bn/	.
8r	.	.	16en/	.
.	.	.	16g/JJ	.
4r	.	4cc\)	16cc/LL	.
.	.	.	16c/	.
.	.	.	16e/	.
.	.	.	16g/JJ	.
*	*	*v	*v	*
=232	=232	=232	=232
4CC/ 4C/	.	16r	.
.	.	16c/LL	.
.	.	16en/	.
.	.	16g/JJ	.
8.r	.	16cc/LL	.
.	.	16c/	.
.	.	16e/	.
16G\ 16B-\	.	16g/JJ	.
=233	=233	=233	=233
4G\ 4B-\	.	16r	.
.	.	16c/LL	<
.	.	16en/	.
.	.	16g/JJ	.
8.r	.	16cc/LL	.
.	.	16c/	.
.	.	16e/	.
16G\ 16B-\	.	16g/JJ	.
=234	=234	=234	=234
*	*	*^	*
[2F\ 2G\ (2B-\	.	4r	16r	.
.	.	.	16c/LL	.
.	.	.	16en/	.
.	.	.	16g/JJ	.
.	.	16cc/LL	4cc\	.
.	.	16c/	.	.
.	.	16e/	.	.
.	.	16g/JJ	.	.
=235	=235	=235	=235	=235
8F\] 8A-\)	.	4cc\	16cc/LL	>
.	.	.	16c/	.
8r	.	.	16en/	.
.	.	.	16g/JJ	.
4r	.	4cc\	16cc/LL	.
.	.	.	16c/	.
.	.	.	16f/	.
.	.	.	16a-/JJ	.
*	*	*v	*v	*
=236	=236	=236	=236
4FF/ 4F/	.	16r	.
.	.	16f/LL	<
.	.	16an/	.
.	.	16cc/JJ	.
8.r	.	16ff/LL	.
.	.	16f/	.
.	.	16a/	.
16c\ 16e-\	.	16cc/JJ	.
=237	=237	=237	=237
4c\ 4e-\	.	16r	.
.	.	16f/LL	.
.	.	16an/	.
.	.	16cc/JJ	.
8.r	.	16ff/LL	.
.	.	16f/	.
.	.	16a/	.
16c\ 16e-\	.	16cc/JJ	.
=238	=238	=238	=238
*	*	*^	*
[2B-\ [2c\ [2e-\	.	4r	16r	.
.	.	.	16f/LL	.
.	.	.	16an/	.
.	.	.	16cc/JJ	.
.	.	16ff/LL	4ff\	.
.	.	16f/	.	.
.	.	16a/	.	.
.	.	16cc/JJ	.	.
*	*	*v	*v	*
=239	=239	=239	=239
8B-\] 8c\] (8e-\L]	.	16f/ 16an/LL	>
.	.	16ff/	.
8B-\ 8d-\	.	16f/ 16b-/	.
.	.	16ff/JJ	.
8A-\ 8c\	.	16f/ 16cc/LL	.
.	.	16ff/	.
8G\ 8B-\J)	.	16f/ 16dd-/	.
.	.	16ff/JJ	.
=240	=240	=240	=240
*	*	*^	*
4C\ 4F\ 4A-\	.	16r	4r	.
.	.	16c/LL	.	p
.	.	16f/	.	.
.	.	16a-/JJ	.	.
8.r	.	16cc/LL	4cc\	.
.	.	16c/	.	.
.	.	16f/	.	.
16F\ 16A-\	.	16a-/JJ	.	.
=241	=241	=241	=241	=241
4C\ 4G\ 4B-\	.	4cc\	16cc/LL	.
.	.	.	16c/	.
.	.	.	16g/	.
.	.	.	16b-/JJ	.
8.r	.	4cc\	16cc/LL	.
.	.	.	16c/	.
.	.	.	16en/	.
16En\ 16G\	.	.	16g/JJ	.
*	*	*v	*v	*
=242	=242	=242	=242
16F\LL	.	4c/ 4f/ 4a-/ 4cc/	.
16c\	.	.	.
16A-\	.	.	.
16F\JJ	.	.	.
16C\LL	.	8.r	.
16A-\	.	.	.
16F\	.	.	.
16C\JJ	.	16ff\ 16aa-\	.
=243	=243	=243	=243
16AA-/LL	.	4ff\ 4aa-\	.
16F/	.	.	.
16C/	.	.	.
16AA-/JJ	.	.	.
16FF/LL	.	8.r	.
16C/	.	.	.
16AA-/	.	.	.
16FF/JJ	.	16ff\ 16aa-\	.
=244	=244	=244	=244
16CC/LL	.	2ff\ (2aa-\	.
16FF/	.	.	.
16AA-/	.	.	.
16C/JJ	.	.	.
16BBn/LL	.	.	.
16C/	.	.	.
16BB/	.	.	.
16C/JJ	.	.	.
=245	=245	=245	=245
16BBn/LL	.	8een\ 8gg\)	.
16C/	.	.	.
16GG/	.	8r	.
16C/JJ	.	.	.
16EEn/LL	.	4r	.
16C/	.	.	.
16GG/	.	.	.
16C/JJ	.	.	.
=246	=246	=246	=246
16CC/LL	.	4r	.
16EEn/	.	.	.
16GG/	.	.	.
16C/JJ	.	.	.
16EE/LL	.	8.r	.
16GG/	.	.	.
16C/	.	.	.
16En/JJ	.	16gg\ 16bb-\	.
=247	=247	=247	=247
16GG/LL	.	4gg\ 4bb-\	.
16C/	.	.	.
16En/	.	.	.
16G/JJ	.	.	.
16C\LL	.	8.r	.
16E\	.	.	.
16G\	.	.	.
16c\JJ	.	16gg\ 16bb-\	.
=248	=248	=248	=248
16F\LL	.	2gg\ (2bb-\	.
16A-\	.	.	.
16c\	.	.	.
16f\JJ	.	.	.
16en\LL	.	.	.
16f\	.	.	.
16e\	.	.	.
16f\JJ	.	.	.
=249	=249	=249	=249
16en\LL	.	8ff\ 8aa-\)	.
16f\	.	.	.
16c\	.	8r	.
16f\JJ	.	.	.
16A-\LL	.	4r	.
16f\	.	.	.
16c\	.	.	.
16f\JJ	.	.	.
=250	=250	=250	=250
16F\LL	.	4r	.
16An\	.	.	.
16c\	.	.	.
16f\JJ	.	.	.
*clefG2	*clefG2	*	*
16An/LL	.	8.r	.
16c/	.	.	.
16f/	.	.	.
16an/JJ	.	16ccc\ 16eee-\	.
=251	=251	=251	=251
16c/LL	.	4ccc\ 4eee-\	.
16f/	.	.	.
16an/	.	.	.
16cc/JJ	.	.	.
16f/LL	.	8.r	.
16a/	.	.	.
16cc/	.	.	.
16ff/JJ	.	16ccc\ 16eee-\	.
=252	=252	=252	=252
16an\LL	.	[2ccc\ [2eee-\	.
16ff\	.	.	.
16een\	.	.	.
16ff\JJ	.	.	.
16a\LL	.	.	.
16ff\	.	.	.
16a\	.	.	.
16ff\JJ	.	.	.
=253	=253	=253	=253
16an\LL	.	8ccc\] (8eee-\L]	>
16ff\	.	.	.
16b-\	.	8bb-\ 8ddd-\	.
16ff\JJ	.	.	.
16cc\LL	.	8aa-\ 8ccc\	.
16ff\	.	.	.
16dd-\	.	8gg\ 8bb-\J)	.
16ff\JJ	.	.	.
=254	=254	=254	=254
16c/LL	.	4ff\ 4aa-\	.
16f/	.	.	.
16a-/	.	.	.
16cc/JJ	.	.	.
16bn\LL	.	8.r	.
16cc\	.	.	.
16b\	.	.	.
16cc\JJ	.	16ff\ 16aa-\ 16fff\	.
=255	=255	=255	=255
16c/LL	.	4gg\ 4bb-\ 4ggg\	.
16en/	.	.	.
16g/	.	.	.
16cc/JJ	.	.	.
16c/LL	.	8.r	.
16g/	.	.	.
16b-/	.	.	.
16cc/JJ	.	16een\ 16gg\ 16eeen\	.
=256	=256	=256	=256
16F/	.	16ff\ 16aa-\ 16fff\	<
16f/ 16a-/LL	.	16cc\LL	.
16c/ 16cc/	.	16ff\	.
16f/ 16a-/JJ	.	16aa-\JJ	.
16c/ 16cc/LL	.	16ccc\LL	.
16f/ 16a-/	.	16ddd-\	.
16c/ 16cc/	.	16ccc\	.
16f/ 16a-/JJ	.	16bb-\JJ	.
=257	=257	=257	=257
16c/ 16cc/LL	.	16aa-\LL	>
16f/ 16a-/	.	16bb-\	.
16c/ 16cc/	.	16aa-\	.
16f/ 16a-/JJ	.	16gg\JJ	.
16c/ 16cc/LL	.	16ff\LL	.
16f/ 16a-/	.	16gg\	.
16c/ 16cc/	.	16aa-\	.
16f/ 16a-/JJ	.	16ff\JJ	.
=258	=258	=258	=258
16F/	.	16r	.
16f/ 16a-/LL	.	16cc\LL	<
16c/ 16cc/	.	16ff\	.
16f/ 16a-/JJ	.	16aa-\JJ	.
16c/ 16cc/LL	.	16ccc\LL	.
16f/ 16a-/	.	16ddd-\	.
16c/ 16cc/	.	16ccc\	.
16f/ 16a-/JJ	.	16bb-\JJ	.
=259	=259	=259	=259
16c/ 16cc/LL	.	16aa-\LL	>
16f/ 16a-/	.	16bb-\	.
16c/ 16cc/	.	16aa-\	.
16f/ 16a-/JJ	.	16gg\JJ	.
16c/ 16cc/LL	.	16ff\LL	.
16f/ 16a-/	.	16gg\	.
16c/ 16cc/	.	16aa-\	.
16f/ 16a-/JJ	.	16ff\JJ	.
*clefF4	*clefF4	*	*
=260	=260	=260	=260
16AA-/	.	16r	.
*	*	*8va	*
16G-\ 16A-\LL	.	16gg-\LL	<
16E-\ 16c\	.	16ccc\	.
16G-\ 16A-\JJ	.	16eee-\JJ	.
16E-\ 16c\LL	.	16ggg-\LL	.
16G-\ 16A-\	.	16aaa-\	.
16E-\ 16c\	.	16ggg-\	.
16G-\ 16A-\JJ	.	16fff\JJ	.
=261	=261	=261	=261
16AA-/	.	16eee-\LL	>
16G-\ 16A-\LL	.	16fff\	.
16E-\ 16c\	.	16eee-\	.
16G-\ 16A-\JJ	.	16ddd-\JJ	.
16E-\ 16c\LL	.	16ccc\LL	.
16G-\ 16A-\	.	16ddd-\	.
16E-\ 16c\	.	16eee-\	.
16G-\ 16A-\JJ	.	16ccc\JJ	.
=262	=262	=262	=262
16AA-/	.	16r	.
16G-\ 16A-\LL	.	16gg-\LL	<
16E-\ 16c\	.	16ccc\	.
16G-\ 16A-\JJ	.	16eee-\JJ	.
16E-\ 16c\LL	.	16ggg-\LL	.
16G-\ 16A-\	.	16aaa-\	.
16E-\ 16c\	.	16ggg-\	.
16G-\ 16A-\JJ	.	16fff\JJ	.
=263	=263	=263	=263
16AA-/	.	16eee-\LL	>
16G-\ 16A-\LL	.	16fff\	.
16E-\ 16c\	.	16eee-\	.
16G-\ 16A-\JJ	.	16ddd-\JJ	.
16E-\ 16c\LL	.	16ccc\LL	.
16G-\ 16A-\	.	16bb-\	.
16E-\ 16c\	.	16aa-\	.
16G-\ 16A-\JJ	.	16gg-\JJ	.
=264	=264	=264	=264
16D-\	.	16ff\LL	.
*clefG2	*clefG2	*	*
16d-/ 16f/LL	.	16aa-\	.
16A-/ 16a-/	.	16ddd-\	.
16d-/ 16f/JJ	.	16fff\JJ	.
16A-/ 16a-/LL	.	16aaa-\LL	.
16d-/ 16f/	.	16bbb-\	.
16A-/ 16a-/	.	16aaa-\	.
16d-/ 16f/JJ	.	16ggg-\JJ	.
*clefF4	*clefF4	*	*
=265	=265	=265	=265
16D-\	.	16fff\LL	.
*clefG2	*clefG2	*	*
16d-/ 16f/LL	.	16ggg-\	.
16A-/ 16a-/	.	16fff\	.
16d-/ 16f/JJ	.	16eee-\JJ	.
16A-/ 16a-/LL	.	16ddd-\LL	.
16d-/ 16f/	.	16eee-\	.
16A-/ 16a-/	.	16fff\	.
16d-/ 16f/JJ	.	16ddd-\JJ	.
*clefF4	*clefF4	*	*
=266	=266	=266	=266
16D-\	.	16r	.
*clefG2	*clefG2	*	*
16d-/ 16f/LL	.	16aa-\LL	<
16A-/ 16a-/	.	16ddd-\	.
16d-/ 16f/JJ	.	16fff\JJ	.
8a-'\L	.	16aaa-\LL	.
.	.	16bbb-\	.
8dd-'\J	.	16aaa-\	.
.	.	16ggg-\JJ	.
=267	=267	=267	=267
8ff'\L	.	16fff\LL	.
.	.	16ggg\	.
8aa-'\	.	16aaa-\	.
.	.	16ggg\JJ	.
8ddd-'\	.	16fff\LL	.
.	.	16ggg\	.
8ddd-'\J	.	16aaa-\	.
.	.	16fff\JJ	.
=268	=268	=268	=268
4.bb-\ (4.ddd-\	.	16r	.
.	.	16ggg-\LL	.
.	.	16aaa-\	.
.	.	16ggg-\JJ	.
.	.	16aaa-\LL	.
.	.	16ggg-\	.
8aa-\ 8ccc\	.	16fff\	.
.	.	16ggg-\JJ	.
=269	=269	=269	=269
4ggn\ 4bb-\	.	16r	.
.	.	16eeen\LL	.
.	.	16fff\	.
.	.	16eee\JJ	.
4aa-\ 4ccc\)	.	16r	.
.	.	16fff\LL	.
.	.	16gggn\	.
.	.	16fff\JJ	.
=270	=270	=270	=270
4.bb-\ (4.ddd-\	.	16r	.
.	.	16ggg-\LL	.
.	.	16aaa-\	.
.	.	16ggg-\JJ	.
.	.	16aaa-\LL	.
.	.	16ggg-\	.
8aa-\ 8ccc\	.	16fff\	.
.	.	16ggg-\JJ	.
=271	=271	=271	=271
4gg\ 4bb-\	.	16r	.
.	.	16eeen\LL	.
.	.	16fff\	.
.	.	16eee\JJ	.
4aa-\ 4ccc\)	.	16r	.
.	.	16fff\LL	.
.	.	16gggn\	.
.	.	16fff\JJ	.
=272	=272	=272	=272
4.bb-\ (4.ddd-\	.	16r	.
.	.	16ggg-\LL	.
.	.	16aaa-\	.
.	.	16ggg-\JJ	.
.	.	16aaa-\LL	.
.	.	16ggg-\	.
8aa-\ 8ccc\	.	16fff\	.
.	.	16ggg-\JJ	.
=273	=273	=273	=273
4gg\ 4bb-\	.	16r	.
.	.	16eeen\LL	.
.	.	16fff\	.
.	.	16eee\JJ	.
4ff\ 4aa-\)	.	16r	.
.	.	16ddd-\LL	.
.	.	16eee-\	.
.	.	16ddd-\JJ	.
*	*	*X8va	*
=274	=274	=274	=274
4een\ (4gg\	.	16r	.
.	.	16ccc\LL	.
.	.	16ddd-\	.
.	.	16ccc\JJ	.
4ddn\ 4ff\	.	16r	.
.	.	16bb-\LL	.
.	.	16ccc\	.
.	.	16bb-\JJ	.
=275	=275	=275	=275
4dd-\ 4ff\	.	16r	.
.	.	16bb-\LL	.
.	.	16ccc\	.
.	.	16bb-\JJ	.
4cc\ 4ff\)	.	16r	.
.	.	16aa-\LL	.
.	.	16bb-\	.
.	.	16aa-\JJ	.
=276	=276	=276	=276
(4bn/	.	16r	.
.	.	16aa-\LL	.
.	.	16bb-\	.
.	.	16aa-\JJ	.
4ddn/	.	16r	.
.	.	16gg\LL	.
.	.	16aa-\	.
.	.	16gg\JJ	.
=277	=277	=277	=277
*^	*	*	*
*	*^	*	*	*
2cc/	4a-\	2c\	.	16r	.
.	.	.	.	16ff\LL	.
.	.	.	.	16gg\	.
.	.	.	.	16ff\JJ	.
*	*v	*v	*	*	*
.	4g\)	.	16r	.
.	.	.	16een\LL	.
.	.	.	16ff\	.
.	.	.	16ee\JJ	.
*v	*v	*	*	*
*clefF4	*clefF4	*	*
=278	=278	=278	=278
4.BB-\ 4.D-\ (4.G-\	.	16r	.
.	.	16d-/LL	.
.	.	16dd-/	.
.	.	16d-/JJ	.
.	.	16dd-/LL	.
.	.	16d-/	.
8AA-/ 8C/ 8F/	.	16dd-/	.
.	.	16d-/JJ	.
=279	=279	=279	=279
4GGn/ 4BB-/ 4En/	.	16r	.
.	.	16d-/LL	.
.	.	16dd-/	.
.	.	16cc/JJ	.
4AA-/ 4C/ 4F/)	.	16b-/LL	.
.	.	16a-/	.
.	.	16g/	.
.	.	16f/JJ	.
=280	=280	=280	=280
4.BB-\ 4.D-\ (4.G-\	.	16r	.
.	.	16dd-\LL	.
.	.	16ddd-\	.
.	.	16dd-\JJ	.
.	.	16ddd-\LL	.
.	.	16dd-\	.
8AA-/ 8C/ 8F/	.	16ddd-\	.
.	.	16dd-\JJ	.
=281	=281	=281	=281
4GGn/ 4BB-/ 4En/	.	16r	.
.	.	16dd-\LL	.
.	.	16ddd-\	.
.	.	16ccc\JJ	.
4AA-/ 4C/ 4F/)	.	16bb-\LL	.
.	.	16aa-\	.
.	.	16gg\	.
.	.	16ff\JJ	.
=282	=282	=282	=282
4.BB-\ 4.D-\ (4.G-\	.	16r	.
.	.	16d-/LL	.
.	.	16dd-/	.
.	.	16d-/JJ	.
.	.	16dd-/LL	.
.	.	16d-/	.
8AA-/ 8C/ 8F/	.	16dd-/	.
.	.	16d-/JJ	.
=283	=283	=283	=283
4GGn/ 4BB-/ 4En/	.	16r	.
.	.	16dd-/LL	.
.	.	16d-/	.
.	.	16dd-/JJ	.
4FF/ 4AA-/ 4D-/	.	16r	.
.	.	16ddd-\LL	.
.	.	16dd-\	.
.	.	16ddd-\JJ	.
=284	=284	=284	=284
4EEn/ 4GG/ 4C/	.	16r	.
.	.	16ccc\LL	.
.	.	16cc\	.
.	.	16ccc\JJ	.
4DDn/ 4FF/ 4AA-/ 4BBn/	.	16r	.
.	.	16bbn\LL	.
.	.	16bn\	.
.	.	16bb\JJ	.
=285	=285	=285	=285
4EEn/ 4GG/ 4BB-/	.	16r	.
.	.	16bb-\LL	.
.	.	16b-\	.
.	.	16bb-\JJ	.
4FF/ 4AA-/)	.	16r	.
.	.	16aa-\LL	.
.	.	16a-\ 16cc\	.
.	.	16aa-\JJ	.
=286	=286	=286	=286
*^	*	*	*
(4AA-/	2BBBn\	.	16r	.
.	.	.	16aa-\LL	.
.	.	.	16a-\ 16ddn\	.
.	.	.	16aa-\JJ	.
4GG/	.	.	16r	.
.	.	.	16gg\LL	.
.	.	.	16g\ 16dd\	.
.	.	.	16gg\JJ	.
=287	=287	=287	=287	=287
4FF/	2CC'\	.	16r	.
.	.	.	16ff\LL	.
.	.	.	16f\ 16a-\	.
.	.	.	16ff\JJ	.
4EEn/)	.	.	16r	.
.	.	.	16een\LL	.
.	.	.	16en\ 16g\	.
.	.	.	16ee\JJ	.
*v	*v	*	*	*
=288	=288	=288	=288
8FFF/ 8AAA-/ 8CC/ 8FF/	.	16f\ 16a-\ 16cc\ 16ff\	f
.	.	16c/LL	.
8r	.	16f/	.
.	.	16a-/JJ	.
16r	.	16cc\LL	.
16C\LL	.	16dd-\	.
16F\	.	16cc\	.
16A-\JJ	.	16b-\JJ	.
=289	=289	=289	=289
16c\LL	.	16a-/LL	.
16d-\	.	16b-/	.
16c\	.	16a-/	.
16B-\JJ	.	16g/JJ	.
16A-\LL	.	16f/LL	.
16G\	.	16e-/	.
16F\	.	16d-/	.
16E-\JJ	.	16c/JJ	.
*	*	*clefF4	*clefF4
=290	=290	=290	=290
16D-/LL	.	16B-\LL	.
16C/	.	16A-\	.
16BB-/	.	16G\	.
16AA-/JJ	.	16F\JJ	.
16GG/LL	.	8En\	.
16AA-/	.	.	.
16BB-/	.	8C\ 8E\ 8G\ 8c\	.
16AA-/JJ	.	.	.
=291	=291	=291	=291
16GG/LL	.	8C\ 8En\ 8B-\ 8c\L	.
16FF/	.	.	.
16EEn/	.	8C\ 8E\ 8B-\ 8c\	.
16DDn/JJ	.	.	.
16CC/LL	.	8C\ 8E\ 8B-\ 8c\	.
16BBB-/	.	.	.
16AAA-/	.	8C\ 8E\ 8B-\ 8c\J	.
16GGG/JJ	.	.	.
=292	=292	=292	=292
8FFF/ 8AAA-/ 8CC/ 8FF/	.	16C\ 16F\ 16A-\ 16c\	f
*	*	*clefG2	*clefG2
.	.	16cc\LL	.
8r	.	16ff\	.
.	.	16aa-\JJ	.
*clefG2	*clefG2	*	*
16r	.	16ccc\LL	.
16c/LL	.	16ddd-\	.
16f/	.	16ccc\	.
16a-/JJ	.	16bb-\JJ	.
=293	=293	=293	=293
16cc\LL	.	16aa-\LL	.
16dd-\	.	16bb-\	.
16cc\	.	16aa-\	.
16b-\JJ	.	16gg\JJ	.
16a-/LL	.	16ff\LL	.
16g/	.	16ee-\	.
16f/	.	16dd-\	.
16e-/JJ	.	16cc\JJ	.
=294	=294	=294	=294
16d-/LL	.	16b-/LL	.
16c/	.	16a-/	.
16B-/	.	16g/	.
16A-/JJ	.	16f/JJ	.
*clefF4	*clefF4	*	*
16G\LL	.	8en/L	.
16A-\	.	.	.
16B-\	.	8c/ 8e/ 8g/ 8cc/J	.
16A-\JJ	.	.	.
=295	=295	=295	=295
16G\LL	.	8c/ 8en/ 8b-/ 8cc/L	.
16F\	.	.	.
16En\	.	8c/ 8e/ 8b-/ 8cc/	.
16Dn\JJ	.	.	.
16C/LL	.	8c/ 8e/ 8b-/ 8cc/	.
16BB-/	.	.	.
16AA-/	.	8c/ 8e/ 8b-/ 8cc/J	.
16GG/JJ	.	.	.
=296	=296	=296	=296
16FF/LL	.	4c/ 4f/ 4a-/ 4cc/	.
16GG/	.	.	.
16AA-/	.	.	.
16BB-/JJ	.	.	.
16C\LL	.	8r	.
16Dn\	.	.	.
16En\	.	8cc\ 8ff\ 8aa-\ 8ccc\	.
16F\JJ	.	.	.
=297	=297	=297	=297
16G\LL	.	8cc\ 8een\ 8bb-\ 8ccc\L	.
16F\	.	.	.
16En\	.	8cc\ 8ee\ 8bb-\ 8ccc\	.
16Dn\JJ	.	.	.
16C/LL	.	8cc\ 8ee\ 8bb-\ 8ccc\	.
16BB-/	.	.	.
16AA-/	.	8cc\ 8ee\ 8bb-\ 8ccc\J	.
16GG/JJ	.	.	.
=298	=298	=298	=298
16FF/LL	.	4cc\ 4ff\ 4aa-\ 4ccc\	.
16GG/	.	.	.
16AA-/	.	.	.
16BB-/JJ	.	.	.
16C\LL	.	8r	.
16Dn\	.	.	.
16En\	.	8c/ 8f/ 8a-/ 8cc/	.
16F\JJ	.	.	.
=299	=299	=299	=299
16G\LL	.	8c/ 8en/ 8b-/ 8cc/L	.
16F\	.	.	.
16En\	.	8c/ 8e/ 8b-/ 8cc/	.
16Dn\JJ	.	.	.
16C/LL	.	8c/ 8e/ 8b-/ 8cc/	.
16BB-/	.	.	.
16AA-/	.	8c/ 8e/ 8b-/ 8cc/J	.
16GG/JJ	.	.	.
=300	=300	=300	=300
*>B1	*>B1	*>B1	*>B1
16FF/LL	.	8c/ 8f/ 8a-/ 8cc/	.
16EEn/	.	.	.
16DDn/	.	8cc\ 8ff\ 8aa-\ 8ccc\L	.
16CC/JJ	.	.	.
16BBB-/LL	.	8cc\ 8ff\ 8aa-\ 8ccc\	.
16AAA-/	.	.	.
16GGG/	.	8cc\ 8ff\ 8aa-\ 8ccc\J	.
16FFF/JJ	.	.	.
=301	=301	=301	=301
16GGG/LL	.	8cc\ 8een\ 8bb-\ 8ccc\L	.
16AAA-/	.	.	.
16BBB-/	.	8cc\ 8ee\ 8bb-\ 8ccc\	.
16CC/JJ	.	.	.
16DDn/LL	.	8cc\ 8ee\ 8bb-\ 8ccc\	.
16EEn/	.	.	.
16FF/	.	8cc\ 8ee\ 8bb-\ 8ccc\J	.
16GG/JJ	.	.	.
=302	=302	=302	=302
8GGG-/ 8GG-/	.	16cc\ 16ee-\ 16aan\ 16ccc\	ff
.	.	16An/LL	.
8r	.	16c/	.
.	.	16e-/JJ	.
4r	.	16g-\LL	.
.	.	16an\	.
.	.	16cc\	.
.	.	16ee-\JJ	.
=303	=303	=303	=303
2r	.	16gg-\LL	.
.	.	16aan\	.
.	.	16ccc\	.
.	.	16eee-\JJ	.
.	.	16ggg-\LL	.
.	.	16eee-\	.
.	.	16ccc\	.
.	.	16aa\JJ	.
=304	=304	=304	=304
2r	.	16gg-\LL	.
.	.	16ee-\	.
.	.	16cc\	.
.	.	16an\JJ	.
.	.	16g-/LL	.
.	.	16e-/	.
.	.	16c/	.
.	.	16An/JJ	.
*	*	*clefF4	*clefF4
=305	=305	=305	=305
4r	.	16G-\LL	.
.	.	16E-\	.
.	.	16C\	.
.	.	16AAn\JJ	.
16r	.	16GG-/	>
16EE-/LL	.	16r	.
16CC/	.	8r	.
16AAAn/JJ	.	.	.
=306	=306	=306	=306
16GGG-/LL	.	2r	.
16EE-/	.	.	.
16CC/	.	.	.
16AAAn/JJ	.	.	.
16GGG-/LL	.	.	.
16EE-/	.	.	.
16CC/	.	.	.
16AAA/JJ	.	.	.
=307	=307	=307	=307
16GGG-/LL	.	2r	.
16EE-/	.	.	.
16CC/	.	.	.
16AAAn/JJ	.	.	.
16GGG-/LL	.	.	.
16EE-/	.	.	.
16CC/	.	.	.
16AAA/JJ	.	.	.
*	*	*clefG2	*clefG2
=308:|!	=308:|!	=308:|!	=308:|!
*>B2	*>B2	*>B2	*>B2
4FF/	.	16c/ 16f/ 16a-/ 16cc/LL	.
.	.	16g/	.
.	.	16a-/	.
.	.	16b-/JJ	.
8r	.	16cc\LL	.
.	.	16ddn\	.
8CC/ 8FF/ 8AA-/ 8C/	.	16een\	.
.	.	16ff\JJ	.
=309	=309	=309	=309
8CC/ 8EEn/ 8GG/ 8BB-/ 8C/L	.	16gg\LL	.
.	.	16ff\	.
8CC/ 8EE/ 8GG/ 8BB-/ 8C/	.	16een\	.
.	.	16dd-\JJ	.
8CC/ 8EE/ 8GG/ 8BB-/ 8C/	.	16cc\LL	.
.	.	16b-\	.
8CC/ 8EE/ 8GG/ 8BB-/ 8C/J	.	16a-\	.
.	.	16g\JJ	.
=310	=310	=310	=310
4CC/ 4FF/ 4AA-/ 4C/	.	16f\LL	.
.	.	16g\	.
.	.	16a-\	.
.	.	16b-\JJ	.
8r	.	16cc\LL	.
.	.	16ddn\	.
8C\ 8F\ 8A-\ 8c\	.	16een\	.
.	.	16ff\JJ	.
=311	=311	=311	=311
8C\ 8En\ 8G\ 8B-\ 8c\L	.	16gg\LL	.
.	.	16ff\	.
8C\ 8E\ 8G\ 8B-\ 8c\	.	16een\	.
.	.	16dd-\JJ	.
8C\ 8E\ 8G\ 8B-\ 8c\	.	16cc\LL	.
.	.	16b-\	.
8C\ 8E\ 8G\ 8B-\ 8c\J	.	16a-\	.
.	.	16g\JJ	.
=312	=312	=312	=312
4C\ 4F\ 4A-\ 4c\	.	16f\LL	.
.	.	16g\	.
.	.	16a-\	.
.	.	16b-\JJ	.
8r	.	16cc\LL	.
.	.	16ddn\	.
8CC/ 8FF/ 8AA-/ 8C/	.	16een\	.
.	.	16ff\JJ	.
=313	=313	=313	=313
8CC/ 8EEn/ 8GG/ 8BB-/ 8C/L	.	16gg\LL	.
.	.	16ff#\	.
8CC/ 8EE/ 8GG/ 8BB-/ 8C/	.	16gg\	.
.	.	16ff#\JJ	.
8CC/ 8EE/ 8GG/ 8BB-/ 8C/	.	16gg\LL	.
.	.	16ff#\	.
8CC/ 8EE/ 8GG/ 8BB-/ 8C/J	.	16gg\	.
.	.	16ff#\JJ	.
=314	=314	=314	=314
8CC/ 8EEn/ 8GG/ 8BB-/ 8C/L	.	16gg\LL	.
.	.	16ff#\	.
8CC/ 8EE/ 8GG/ 8BB-/ 8C/	.	16gg\	.
.	.	16ff#\JJ	.
8CC/ 8EE/ 8GG/ 8BB-/ 8C/	.	16gg\LL	.
.	.	16ff#\	.
8CC/ 8EE/ 8GG/ 8BB-/ 8C/J	.	16gg\	.
.	.	16ff#\JJ	.
=315	=315	=315	=315
8CC/ 8EEn/ 8GG/ 8BB-/ 8C/L	.	16gg\LL	.
.	.	16ffn\	.
8CC/ 8EE/ 8GG/ 8BB-/ 8C/	.	16een\	.
.	.	16dd-\JJ	.
8CC/ 8EE/ 8GG/ 8BB-/ 8C/	.	16cc\LL	.
.	.	16b-\	.
8CC/ 8EE/ 8GG/ 8BB-/ 8C/J	.	16a-\	.
.	.	16g\JJ	.
=316!|:	=316!|:	=316!|:	=316!|:
*>D	*>D	*>D	*>D
*MM180	*MM180	*MM180	*MM180
2FFF/ 2AAA-/ 2CC/ 2FF/	.	2A-/ 2c/ 2f/	ff
=317	=317	=317	=317
2FFF/ 2AAA-/ 2CC/ 2FF/	.	2A-/ 2c/ 2a-/	.
=318	=318	=318	=318
8CC'/ 8C'/L	.	8G'/ 8B-'/ 8g'/L	p
8CC'/	.	8G'/ 8B-'/ 8en'/	.
8CC'/	.	8G'/ 8B-'/ 8c'/	.
8CC'/J	.	8G'/ 8B-'/ 8e'/J	.
=319	=319	=319	=319
8FFF'/ 8FF'/L	.	8A-'/ 8c'/ 8f'/L	.
8FF'/	.	8A-'/ 8c'/	.
8FF'/	.	8A-'/ 8c'/ 8f'/	.
8FF'/J	.	8A-'/ 8c'/ 8a-'/J	.
=320	=320	=320	=320
8CC'/ 8C'/L	.	8G/ 8B-/ 8g/L	.
8CC'/	.	8G'/ 8B-'/ 8en'/	.
8CC'/	.	8G'/ 8B-'/ 8c'/	.
8CC'/J	.	8G'/ 8B-'/ 8e'/J	.
=321	=321	=321	=321
8FFF'/ 8FF'/L	.	8A-'/ 8c'/ 8f'/L	.
8FF'/	.	8A-'/ 8c'/	.
8FF'/	.	8A-'/ 8c'/ 8f'/	.
8FF'/J	.	8A-'/ 8c'/ 8a-'/J	.
=322	=322	=322	=322
8GGG'/L	.	8G'/ 8c'/ 8g'/L	.
8GG'/	.	8G'/ 8c'/ 8e-'/	.
8GGG'/	.	8F'/ 8Bn'/ 8dn'/	.
8GGG'/J	.	8G'/ 8B'/ 8g'/J	.
=323	=323	=323	=323
*>D1	*>D1	*>D1	*>D1
4CC/	.	4c/	.
8r	.	8r	.
(32CC/LLL	.	(24c/LL	.
32BBB-/	.	.	.
.	.	24dn/	.
32AAA-/	.	.	.
.	.	24en/JJ)	.
32GGG/JJJ)	.	.	.
=324:|!	=324:|!	=324:|!	=324:|!
*>D2	*>D2	*>D2	*>D2
4CC/	.	4c/	.
8r	.	8r	.
(24EE-/LL	.	(24e-/LL	.
24FF/	.	24f/	.
24GG/JJ)	.	24g/JJ)	.
=325!|:	=325!|:	=325!|:	=325!|:
*>E	*>E	*>E	*>E
2AAA-/ 2CC/ 2EE-/ 2AA-/	.	2c/ 2e-/ 2a-/	ff
=326	=326	=326	=326
2AAA-/ 2CC/ 2EE-/ 2AA-/	.	2c/ 2e-/ 2cc/	.
=327	=327	=327	=327
8EE-'/ 8E-'/L	.	8B-/ 8d-/ 8b-/L	p
8EE-'/	.	8B-'/ 8d-'/ 8g'/	.
8EE-'/	.	8B-'/ 8d-'/ 8e-'/	.
8EE-'/J	.	8B-'/ 8d-'/ 8g'/J	.
=328	=328	=328	=328
8AAA-'/ 8AA-'/L	.	8c'/ 8e-'/ 8a-'/L	.
8AA-'/	.	8c'/ 8e-'/	.
8AA-'/	.	8c'/ 8e-'/ 8a-'/	.
8AA-'/J	.	8c'/ 8e-'/ 8cc'/J	.
=329	=329	=329	=329
8EE-'/ 8E-'/L	.	8B-'/ 8d-'/ 8b-'/L	.
8EE-'/	.	8B-'/ 8d-'/ 8g'/	.
8EE-'/	.	8B-'/ 8d-'/ 8e-'/	.
8EE-'/J	.	8B-'/ 8d-'/ 8g'/J	.
=330	=330	=330	=330
8AAA-'/ 8AA-'/L	.	8A-'/ 8c'/ 8a-'/L	.
8AA-'/	.	8c'/ 8e-'/	.
8AA-'/	.	8c'/ 8e-'/ 8a-'/	.
8AA-'/J	.	8c'/ 8e-'/ 8cc'/J	.
=331	=331	=331	=331
8FFF'/ 8FF'/L	.	8c'/ 8e-'/ 8an'/L	.
8FFF'/	.	8c'/ 8e-'/ 8f'/	.
8FFF'/	.	8c'/ 8e-'/ 8a'/	.
8FFF'/J	.	8c'/ 8e-'/ 8cc'/J	.
=332	=332	=332	=332
8BBB-'/ 8BB-'/L	.	8d-'/ 8f'/ 8b-'/L	.
8BB-/	.	8d-'/ 8f'/	.
8BB-'/	.	8d-'/ 8f'/ 8b-'/	.
8BB-'/J	.	8d-'/ 8f'/ 8dd-'/J	.
=333	=333	=333	=333
8CC'/L	.	8c'/ 8f'/ 8cc'/L	.
8C'/	.	8c'/ 8f'/ 8a-'/	.
8CC'/	.	8c'/ 8en'/ 8g'/	.
8CC'/J	.	8c'/ 8e'/ 8cc'/J	.
=334	=334	=334	=334
*>E1	*>E1	*>E1	*>E1
4FFF/ 4FF/	.	4f/	.
8r	.	8r	.
(24EE-/LL	.	(24e-/LL	.
24FF/	.	24f/	.
24GG/JJ)	.	24g/JJ)	.
=335:|!	=335:|!	=335:|!	=335:|!
*>E2	*>E2	*>E2	*>E2
16FFF/ 16FF/	.	16f/LL	f
16FF/LL	.	16c/	.
16AA-/	.	16f/	.
16C/JJ	.	16a-/JJ	.
[4F/	.	16cc\LL	f
.	.	16dd-\	.
.	.	16cc\	.
.	.	16b-\JJ	.
=336	=336	=336	=336
*>F	*>F	*>F	*>F
16F/]	.	16a-/LL	.
16FF/LL	.	16b-/	.
16AA-/	.	16a-/	.
16C/JJ	.	16g/JJ	.
[4F/	.	16f/LL	.
.	.	16g/	.
.	.	16a-/	.
.	.	16f/JJ	.
=337	=337	=337	=337
16F/]	.	16a-/LL	.
16FF/LL	.	16c/	.
16AA-/	.	16f/	.
16C/JJ	.	16a-/JJ	.
[4F\	.	16cc\LL	.
.	.	16dd-\	.
.	.	16cc\	.
.	.	16b-\JJ	.
=338	=338	=338	=338
16F/]	.	16a-/LL	.
16FF/LL	.	16b-/	.
16AA-/	.	16a-/	.
16C/JJ	.	16g/JJ	.
4F/	.	16f/LL	.
.	.	16g/	.
.	.	16a-/	.
.	.	16f/JJ	.
=339	=339	=339	=339
16r	.	16g-/LL	.
16BB-\LL	.	16d-/	.
16D-\	.	16g-/	.
16G-\JJ	.	16b-/JJ	.
[4B-\	.	16dd-\LL	.
.	.	16ee-\	.
.	.	16dd-\	.
.	.	16cc\JJ	.
=340	=340	=340	=340
16B-\]	.	16b-\LL	.
16BB-\LL	.	16cc\	.
16D-\	.	16b-\	.
16G-\JJ	.	16a-\JJ	.
4B-\	.	16g-/LL	.
.	.	16a-/	.
.	.	16g-/	.
.	.	16f/JJ	.
=341	=341	=341	=341
16r	.	16en/LL	.
16C\LL	.	16f/	.
16Gn\	.	16gn/	.
16B-\JJ	.	16a-/JJ	.
[4c\	.	16b-/LL	.
.	.	16a-/	.
.	.	16g/	.
.	.	16f/JJ	.
=342	=342	=342	=342
16c\]	.	16en/LL	.
16C\LL	.	16f/	.
16G\	.	16g/	.
16B-\JJ	.	16a-/JJ	.
4c\	.	16b-\LL	.
.	.	16cc\	.
.	.	16ddn\	.
.	.	16een\JJ	.
=343	=343	=343	=343
16r	.	16ff\LL	p
16F\LL	.	16cc\	f
16A-\	.	16ff\	.
16c\JJ	.	16aa-\JJ	.
[4f\	.	16ccc\LL	.
.	.	16ddd-\	.
.	.	16ccc\	.
.	.	16bb-\JJ	.
=344	=344	=344	=344
16f\]	.	16aa-\LL	.
16F\LL	.	16bb-\	.
16A-\	.	16aa-\	.
16c\JJ	.	16gg\JJ	.
[4f\	.	16ff\LL	.
.	.	16gg\	.
.	.	16aa-\	.
.	.	16ff\JJ	.
=345	=345	=345	=345
16f\]	.	16aa-\LL	.
16F\LL	.	16cc\	.
16A-\	.	16ff\	.
16c\JJ	.	16aa-\JJ	.
[4f\	.	16ccc\LL	.
.	.	16ddd-\	.
.	.	16ccc\	.
.	.	16bb-\JJ	.
=346	=346	=346	=346
16f\]	.	16aa-\LL	.
16F\LL	.	16bb-\	.
16A-\	.	16aa-\	.
16c\JJ	.	16gg\JJ	.
4f\	.	16ff\LL	.
.	.	16gg\	.
.	.	16aa-\	.
.	.	16ff\JJ	.
*clefG2	*clefG2	*	*
=347	=347	=347	=347
16r	.	16gg-\LL	.
16B-/LL	.	16dd-\	.
16d-/	.	16gg-\	.
16g-/JJ	.	16bb-\JJ	.
[4b-/	.	16ddd-\LL	.
.	.	16eee-\	.
.	.	16ddd-\	.
.	.	16ccc\JJ	.
=348	=348	=348	=348
16b-/]	.	16bb-\LL	.
16B-/LL	.	16ccc\	.
16d-/	.	16bb-\	.
16g-/JJ	.	16aa-\JJ	.
4b-/	.	16gg-\LL	.
.	.	16aa-\	.
.	.	16gg-\	.
.	.	16ff\JJ	.
=349	=349	=349	=349
16r	.	16een\LL	.
16c/LL	.	16ff\	.
16en/	.	16ggn\	.
16gn/JJ	.	16aa-\JJ	.
4b-/	.	16bb-\LL	.
.	.	16aa-\	.
.	.	16gg\	.
.	.	16ff\JJ	.
*clefF4	*clefF4	*	*
=350	=350	=350	=350
16r	.	16een\LL	.
16C\LL	.	16ff\	.
16En\	.	16gg\	.
16G\JJ	.	16aa-\JJ	.
4c\	.	16bb-\LL	.
.	.	16ccc\	.
.	.	16dddn\	.
.	.	16eeen\JJ	.
=351	=351	=351	=351
*	*	*8va	*
8FF/ 8F/	.	16fff\LL	ff
.	.	16aa-\	.
8r	.	16ccc\	.
.	.	16fff\JJ	.
8r	.	[4aaa-\	.
*clefG2	*clefG2	*	*
16cc\LL	.	.	.
16ff\JJ	.	.	.
=352	=352	=352	=352
4.aa-\	.	16aaa-\LL]	.
.	.	16ccc\	.
.	.	16fff\	.
.	.	16aaa-\JJ	.
.	.	16cccc\LL	.
.	.	16aaa-\	.
8c/	.	16ggg\	.
.	.	16eeen\JJ	.
=353	=353	=353	=353
8f/	.	16fff\LL	.
.	.	16aa-\	.
8r	.	16ccc\	.
.	.	16fff\JJ	.
8r	.	[4aaa-\	.
16cc\LL	.	.	.
16ff\JJ	.	.	.
=354	=354	=354	=354
4.aa-\	.	16aaa-\LL]	.
.	.	16ccc\	.
.	.	16fff\	.
.	.	16aaa-\JJ	.
.	.	16cccc\LL	.
.	.	16aaa-\	.
8c/	.	16ggg\	.
.	.	16eeen\JJ	.
=355	=355	=355	=355
8f/	.	16fff\LL	.
.	.	16aa-\	.
8r	.	16ccc\	.
.	.	16fff\JJ	.
8r	.	[4aaa-\	.
16cc\LL	.	.	.
16ff\JJ	.	.	.
=356	=356	=356	=356
4.aa-/	.	16aaa-\LL]	.
.	.	16ccc\	.
.	.	16fff\	.
.	.	16aaa-\JJ	.
.	.	16cccc\LL	.
.	.	16aaa-\	.
8c/	.	16ggg\	.
.	.	16eeen\JJ	.
=357	=357	=357	=357
8f/	.	16fff\LL	.
.	.	16aa-\	.
8r	.	16ccc\	.
.	.	16fff\JJ	.
8r	.	[4aaa-\	.
16cc\LL	.	.	.
16ff\JJ	.	.	.
=358	=358	=358	=358
4.aa-\	.	16aaa-\LL]	.
.	.	16ccc\	.
.	.	16fff\	.
.	.	16aaa-\JJ	.
.	.	16cccc\LL	.
.	.	16aaa-\	.
8c/	.	16ggg\	.
.	.	16eeen\JJ	.
=359	=359	=359	=359
4f/	.	16fff\LL	.
.	.	16ccc\	.
.	.	16fff\	.
.	.	16aaa-\JJ	.
8r	.	16cccc\LL	.
.	.	16aaa-\	.
8c/	.	16ggg\	.
.	.	16eeen\JJ	.
*clefF4	*clefF4	*	*
=360	=360	=360	=360
4F\	.	16fff\LL	.
.	.	16ccc\	.
.	.	16fff\	.
.	.	16aaa-\JJ	.
8r	.	16cccc\LL	.
.	.	16aaa-\	.
8C/	.	16ggg\	.
.	.	16eeen\JJ	.
=361	=361	=361	=361
4FF/	.	16fff\LL	.
.	.	16ccc\	.
.	.	16fff\	.
.	.	16aaa-\JJ	.
8r	.	16cccc\LL	.
.	.	16aaa-\	.
8CC/	.	16ggg\	.
.	.	16eeen\JJ	.
=362	=362	=362	=362
8FFF/L	.	16cccc\LL	.
.	.	16aaa-\	.
8CC/	.	16ggg\	.
.	.	16eeen\JJ	.
8FFF/	.	16cccc\LL	.
.	.	16aaa-\	.
8CC/J	.	16ggg\	.
.	.	16eee\JJ	.
=363	=363	=363	=363
16FFF/LL	.	16cccc\LL	ff
16AAA-/	.	16aaa-\	.
16CC/	.	16fff\	.
16FF/JJ	.	16ccc\JJ	.
16FFF/LL	.	16aaa-\LL	.
16AAA-/	.	16fff\	.
16CC/	.	16ccc\	.
16FF/JJ	.	16aa-\JJ	.
=364	=364	=364	=364
16FFF/LL	.	16fff\LL	.
16AAA-/	.	16ccc\	.
16CC/	.	16aa-\	.
16FF/JJ	.	16ff\JJ	.
*	*	*X8va	*
16FFF/LL	.	16ccc\LL	.
16AAA-/	.	16aa-\	.
16CC/	.	16ff\	.
16FF/JJ	.	16cc\JJ	.
=365	=365	=365	=365
16FFF/LL	.	16aa-\LL	.
16AAA-/	.	16ff\	.
16CC/	.	16cc\	.
16FF/JJ	.	16a-\JJ	.
16FFF/LL	.	16ff\LL	.
16AAA-/	.	16cc\	.
16CC/	.	16a-\	.
16FF/JJ	.	16f\JJ	.
=366	=366	=366	=366
16FFF/LL	.	16cc/LL	.
16AAA-/	.	16a-/	.
16CC/	.	16f/	.
16FF/JJ	.	16c/JJ	.
16FFF/LL	.	16a-/LL	.
16AAA-/	.	16f/	.
16CC/	.	16c/	.
16FF/JJ	.	16A-/JJ	.
*	*	*clefF4	*clefF4
=367	=367	=367	=367
16FFF/LL	.	16f\LL	.
16AAA-/	.	16c\	.
16CC/	.	16A-\	.
16FF/JJ	.	16F\JJ	.
16FFF/LL	.	16c\LL	.
16AAA-/	.	16A-\	.
16CC/	.	16F\	.
16FF/JJ	.	16C\JJ	.
=368	=368	=368	=368
16FFF/LL	.	16A-\LL	.
16AAA-/	.	16F\	.
16CC/	.	16C\	.
16FF/JJ	.	16AA-\JJ	.
16FFF/LL	.	16F\LL	.
16AAA-/	.	16C\	.
16CC/	.	16AA-\	.
16FF/JJ	.	16C\JJ	.
=369	=369	=369	=369
8FFF/ 8AAA-/ 8CC/ 8FF/	.	8AA-\ 8C\ 8F\	.
8r	.	8r	.
4r	.	4r	.
*	*	*clefG2	*clefG2
=370	=370	=370	=370
8FFF/ 8AAA-/ 8CC/ 8FF/	.	8f\ 8a-\ 8cc\ 8ff\	.
8r	.	8r	.
4r	.	4r	.
=371	=371	=371	=371
8FFF/ 8AAA-/ 8CC/ 8FF/	.	8F/ 8A-/ 8c/ 8f/	.
8r	.	8r	.
4r	.	4r	.
==	==	==	==
*-	*-	*-	*-
!!!ENC: Craig Stuart Sapp
!!!END: 2008/02/21/
!!!EEV: 2014/07/13/ (added ottavas)
